Vancarii/gesture-z1/src/z1_sdk/scripts/data/gesture_data_20251201_163006.csv
timestamp,gesture,gesture_id,gesture_confidence,gesture_phase,gesture_vel_x,gesture_vel_y,gesture_vel_z,ee_x,ee_y,ee_z,joint_0,joint_1,joint_2,joint_3,joint_4,joint_5,gripper,prev_action,prev_action_id,action,action_id
1764635450.97067,none,0,0.0,0,0.0,0.0,0.0,-0.015793110442190228,0.0004899862575650101,0.1729128808266687,0.011369346641004086,-5.526990207727067e-06,-0.12630531191825867,0.25651150941848755,0.01360830757766962,-0.025290437042713165,-0.02516728825867176,idle,0,idle,0
1764635451.0707972,none,0,0.0,0,0.0,0.0,0.0,-0.01577975527112821,0.0004899469284739986,0.17290503130100623,0.011371154338121414,-5.5261275520024356e-06,-0.12617821991443634,0.2562185227870941,0.013605001382529736,-0.025282759219408035,-0.025209158658981323,idle,0,idle,0
1764635451.1708987,none,0,0.0,0,0.0,0.0,0.0,-0.015766956346476353,0.0004899098267002807,0.1728977725988673,0.011372887529432774,-5.525269443751313e-06,-0.12605667114257812,0.2559362053871155,0.013601844199001789,-0.02527534030377865,-0.025249416008591652,idle,0,idle,0
1764635451.271085,none,0,0.0,0,0.0,0.0,0.0,-0.015753661750071687,0.0004898703209545877,0.17288981654430483,0.011374703608453274,-5.524382231669733e-06,-0.12592987716197968,0.25564494729042053,0.0135985491797328,-0.02526765875518322,-0.02529139444231987,idle,0,idle,0
1764635451.371264,none,0,0.0,0,0.0,0.0,0.0,-0.01574036694308268,0.0004898305139818597,0.1728819810991059,0.0113765187561512,-5.5566520131833386e-06,-0.125803142786026,0.25535282492637634,0.013595246709883213,-0.02525997720658779,-0.025332942605018616,idle,0,idle,0
1764635451.4714537,none,0,0.0,0,0.0,0.0,0.0,-0.01572761941173486,0.0004897936846917772,0.17287448519391874,0.011378255672752857,-5.5558152780577075e-06,-0.12568160891532898,0.25507253408432007,0.013592105358839035,-0.025252627208828926,-0.02537289634346962,idle,0,idle,0
1764635451.571788,none,0,0.0,0,0.0,0.0,0.0,-0.01571427646742401,0.0004897551156879139,0.17286646777655545,0.011380070820450783,-5.553473329200642e-06,-0.1255541443824768,0.2547798752784729,0.013588814996182919,-0.025244932621717453,-0.025414707139134407,idle,0,idle,0
1764635451.6720226,none,0,0.0,0,0.0,0.0,0.0,-0.0157010802746185,0.0004897164348218819,0.17285884815851174,0.011381883174180984,-5.554300514631905e-06,-0.12542837858200073,0.25448864698410034,0.01358555443584919,-0.025237267836928368,-0.025455927476286888,idle,0,idle,0
1764635451.7721426,none,0,0.0,0,0.0,0.0,0.0,-0.01568783866401071,0.000489678012693003,0.17285091493079408,0.011383694596588612,-5.551520644075936e-06,-0.125301793217659,0.25419774651527405,0.013582287356257439,-0.02522961050271988,-0.02549704723060131,idle,0,idle,0
1764635451.8722355,none,0,0.0,0,0.0,0.0,0.0,-0.01567519807545068,0.0004896396984065358,0.1728437849478633,0.011385442689061165,-5.5524828894704115e-06,-0.1251814067363739,0.2539175748825073,0.013579140417277813,-0.025222264230251312,-0.025536611676216125,idle,0,idle,0
1764635451.9723554,none,0,0.0,0,0.0,0.0,0.0,-0.01566204136620955,0.0004896004284089195,0.17283574781241207,0.011387267149984837,-5.523895652004285e-06,-0.12505535781383514,0.25362905859947205,0.013575877994298935,-0.025214700028300285,-0.02557803876698017,idle,0,idle,0
1764635452.0726156,none,0,0.0,0,0.0,0.0,0.0,-0.015649042070493946,0.0004895591096991116,0.1728282717815056,0.011389113962650299,-5.5271293604164384e-06,-0.12493127584457397,0.25334134697914124,0.013572616502642632,-0.025207167491316795,-0.025619175285100937,idle,0,idle,0
1764635452.1730397,none,0,0.0,0,0.0,0.0,0.0,-0.015636455085913957,0.0004895205592619037,0.1728208394682472,0.01139089372009039,-5.557292297453387e-06,-0.1248108372092247,0.2530635595321655,0.0135694844648242,-0.02519993484020233,-0.025659076869487762,idle,0,idle,0
1764635452.2728996,none,0,0.0,0,0.0,0.0,0.0,-0.015623595940300383,0.0004894835958553384,0.1728134210281856,0.01139277033507824,-5.561385478358716e-06,-0.12468795478343964,0.2527787387371063,0.013566351495683193,-0.025192489847540855,-0.02569996938109398,idle,0,idle,0
1764635452.373113,none,0,0.0,0,0.0,0.0,0.0,-0.015610628844956294,0.0004894438518166774,0.17280551923172013,0.011394651606678963,-5.5325081120827235e-06,-0.12456352263689041,0.25249361991882324,0.013563137501478195,-0.02518509514629841,-0.02574131265282631,idle,0,idle,0
1764635452.4732687,none,0,0.0,0,0.0,0.0,0.0,-0.015598919973468864,0.0004894276585135565,0.17279850190572446,0.01139641273766756,-5.5624877859372646e-06,-0.12445121258497238,0.2522352933883667,0.01356065459549427,-0.02517818845808506,-0.025775834918022156,idle,0,idle,0
1764635452.5736609,none,0,0.0,0,0.0,0.0,0.0,-0.015586016281886148,0.0004893894053262483,0.17279094834768907,0.011398290283977985,-5.53259360458469e-06,-0.1243276372551918,0.25194963812828064,0.01355748251080513,-0.025170747190713882,-0.025817280635237694,idle,0,idle,0
1764635452.6736631,none,0,0.0,0,0.0,0.0,0.0,-0.015573174235098491,0.0004893517204332456,0.17278355279951796,0.011400168761610985,-5.533103376365034e-06,-0.12420471757650375,0.25166448950767517,0.013554335571825504,-0.025163250043988228,-0.025858499109745026,idle,0,idle,0
1764635452.7737901,none,0,0.0,0,0.0,0.0,0.0,-0.015560333181003236,0.0004893155386971012,0.17277604025302773,0.011402047239243984,-5.530008365894901e-06,-0.12408161908388138,0.2513798177242279,0.013551218435168266,-0.02515561506152153,-0.025899507105350494,idle,0,idle,0
1764635452.8738575,none,0,0.0,0,0.0,0.0,0.0,-0.015548026218040474,0.0004892828283894479,0.17276879947006601,0.011403835378587246,-5.56282384422957e-06,-0.12396351993083954,0.25110697746276855,0.013548266142606735,-0.02514823153614998,-0.025938963517546654,idle,0,idle,0
1764635452.9742384,none,0,0.0,0,0.0,0.0,0.0,-0.01553529587441009,0.0004892483164603278,0.17276133682950467,0.011405693367123604,-5.530262114916695e-06,-0.12384137511253357,0.25082457065582275,0.013545200228691101,-0.025140464305877686,-0.02597997710108757,idle,0,idle,0
1764635453.0742316,none,0,0.0,0,0.0,0.0,0.0,-0.015522501728760026,0.0004892165453544479,0.17275383038836256,0.011407563462853432,-5.563636932492955e-06,-0.1237185150384903,0.25054049491882324,0.013542178086936474,-0.025132540613412857,-0.02602076716721058,idle,0,idle,0
1764635453.1743536,none,0,0.0,0,0.0,0.0,0.0,-0.015509825876350802,0.0004891852010255214,0.1727464033936228,0.01140941958874464,-5.530138423637254e-06,-0.12359678745269775,0.2502589523792267,0.013539186678826809,-0.02512471005320549,-0.0260616485029459,idle,0,idle,0
1764635453.274514,none,0,0.0,0,0.0,0.0,0.0,-0.015497621794827499,0.0004891550164624974,0.1727392393030123,0.011411214247345924,-5.535788204724668e-06,-0.12347950041294098,0.24998773634433746,0.013536307960748672,-0.025117194280028343,-0.02610088139772415,idle,0,idle,0
1764635453.3747294,none,0,0.0,0,0.0,0.0,0.0,-0.015484897745147816,0.0004891252295203039,0.17273181947425806,0.011413085274398327,-5.53597419639118e-06,-0.12335722148418427,0.24970455467700958,0.013533339835703373,-0.02510938048362732,-0.02614198997616768,idle,0,idle,0
1764635453.4748428,none,0,0.0,0,0.0,0.0,0.0,-0.015472214967135849,0.0004890953712071096,0.1727245131838342,0.011414957232773304,-5.529693225980736e-06,-0.12323538959026337,0.24942167103290558,0.01353037916123867,-0.025101589038968086,-0.026182731613516808,idle,0,idle,0
1764635453.5750418,none,0,0.0,0,0.0,0.0,0.0,-0.01546012509113532,0.00048906765460073,0.1727174338012266,0.011416753754019737,-5.53635891265003e-06,-0.1231190636754036,0.24915243685245514,0.013527574948966503,-0.025094235315918922,-0.026221660897135735,idle,0,idle,0
1764635453.6752198,none,0,0.0,0,0.0,0.0,0.0,-0.015447474062180812,0.0004890397457182497,0.17270987852986144,0.011418630369007587,-5.563862941926345e-06,-0.12299710512161255,0.24887128174304962,0.013524660840630531,-0.025086531415581703,-0.026262162253260612,idle,0,idle,0
1764635453.775455,none,0,0.0,0,0.0,0.0,0.0,-0.015434907264085258,0.0004890119482456751,0.17270267217816207,0.011420493945479393,-5.555941243073903e-06,-0.12287626415491104,0.24859033524990082,0.013521763496100903,-0.02507890947163105,-0.026302915066480637,idle,0,idle,0
1764635453.8756554,none,0,0.0,0,0.0,0.0,0.0,-0.01542279392912374,0.0004889870216781035,0.17269543656218198,0.011422296054661274,-5.563977083511418e-06,-0.1227593943476677,0.24832086265087128,0.013519009575247765,-0.025071602314710617,-0.026341881603002548,idle,0,idle,0
1764635453.9757662,none,0,0.0,0,0.0,0.0,0.0,-0.01541028408294845,0.000488959684755852,0.17268811988263094,0.011424170807003975,-5.537125161936274e-06,-0.12263884395360947,0.24804165959358215,0.013516136445105076,-0.025064026936888695,-0.026382219046354294,idle,0,idle,0
1764635454.0758677,none,0,0.0,0,0.0,0.0,0.0,-0.015397710843259062,0.000488932385724529,0.1726809094189151,0.01142606046050787,-5.515608791029081e-06,-0.12251778692007065,0.2477601170539856,0.013513253070414066,-0.025056513026356697,-0.026422714814543724,idle,0,idle,0
1764635454.1763594,none,0,0.0,0,0.0,0.0,0.0,-0.015385040803793382,0.0004888933995107894,0.17267337680773057,0.01142793893814087,-5.510941264219582e-06,-0.12239543348550797,0.24747762084007263,0.013510105200111866,-0.025049181655049324,-0.026462368667125702,idle,0,idle,0
1764635454.2760491,none,0,0.0,0,0.0,0.0,0.0,-0.015372862460226684,0.0004888557789896866,0.17266624143846712,0.011429747566580772,-5.508875347004505e-06,-0.1222778931260109,0.24720537662506104,0.013507076539099216,-0.02504214458167553,-0.026500504463911057,idle,0,idle,0
1764635454.376118,none,0,0.0,0,0.0,0.0,0.0,-0.01536029358039634,0.0004888179287458248,0.17265906008600393,0.011431611143052578,-5.513138148671715e-06,-0.12215673178434372,0.2469232678413391,0.013503968715667725,-0.025034889578819275,-0.02654012106359005,idle,0,idle,0
1764635454.4762266,none,0,0.0,0,0.0,0.0,0.0,-0.015347683170328995,0.0004887801764851113,0.17265139095173557,0.011433478444814682,-5.512230927706696e-06,-0.12203459441661835,0.24664251506328583,0.013500853441655636,-0.025027552619576454,-0.02657932974398136,idle,0,idle,0
1764635454.576339,none,0,0.0,0,0.0,0.0,0.0,-0.015335630066630947,0.0004887436865493918,0.17264465541941634,0.011435272172093391,-5.505622993950965e-06,-0.12191847711801529,0.24637089669704437,0.013497869484126568,-0.02502051182091236,-0.02661704272031784,idle,0,idle,0
1764635454.6764424,none,0,0.0,0,0.0,0.0,0.0,-0.015323093281474236,0.0004887065386884005,0.1726371976989784,0.011437134817242622,-5.510804840014316e-06,-0.12179712951183319,0.2460905760526657,0.013494780287146568,-0.025013186037540436,-0.02665623091161251,idle,0,idle,0
1764635454.776559,none,0,0.0,0,0.0,0.0,0.0,-0.015310489777377242,0.0004886681826607274,0.17262984162345213,0.011439009569585323,-5.531898750632536e-06,-0.12167523056268692,0.24580782651901245,0.013491653837263584,-0.025005914270877838,-0.026695208624005318,idle,0,idle,0
1764635454.8766482,none,0,0.0,0,0.0,0.0,0.0,-0.015298401102366084,0.0004886316331030795,0.1726227848139189,0.011440785601735115,-5.529172540263971e-06,-0.12155827134847641,0.24553652107715607,0.013488652184605598,-0.024998938664793968,-0.026732442900538445,idle,0,idle,0
1764635454.9767747,none,0,0.0,0,0.0,0.0,0.0,-0.015285831835010422,0.0004885939387187455,0.17261528714850302,0.011442618444561958,-5.495065124705434e-06,-0.12143644690513611,0.24525517225265503,0.013485532253980637,-0.02499166503548622,-0.026771068572998047,idle,0,idle,0
1764635455.076958,none,0,0.0,0,0.0,0.0,0.0,-0.015273306887694918,0.0004885564688919428,0.17260814792999044,0.011444463394582272,-5.525938377104467e-06,-0.12131533026695251,0.24497278034687042,0.013482430018484592,-0.02498440258204937,-0.026809435337781906,idle,0,idle,0
1764635455.1769807,none,0,0.0,0,0.0,0.0,0.0,-0.015261228279616734,0.0004885202123945327,0.17260124517238318,0.011446227319538593,-5.525726464838954e-06,-0.12119847536087036,0.24470044672489166,0.013479430228471756,-0.024977367371320724,-0.026846470311284065,idle,0,idle,0
1764635455.2771068,none,0,0.0,0,0.0,0.0,0.0,-0.015248652519662224,0.0004884835471501422,0.17259360450444333,0.011448054574429989,-5.522869741980685e-06,-0.12107624858617783,0.2444191426038742,0.013476325199007988,-0.02497008629143238,-0.026884600520133972,idle,0,idle,0
1764635455.3772664,none,0,0.0,0,0.0,0.0,0.0,-0.015236189024309794,0.0004884456980039525,0.1725867870437731,0.011449890211224556,-5.527864232135471e-06,-0.12095589935779572,0.24413618445396423,0.013473223894834518,-0.02496277168393135,-0.02692295052111149,idle,0,idle,0
1764635455.477467,none,0,0.0,0,0.0,0.0,0.0,-0.015224279521809513,0.0004884083717022298,0.17257966960522964,0.011451708152890205,-5.537307515623979e-06,-0.1208401694893837,0.24386882781982422,0.013470255769789219,-0.024955973029136658,-0.0269597377628088,idle,0,idle,0
1764635455.577682,none,0,0.0,0,0.0,0.0,0.0,-0.015212066401735412,0.0004883655840230753,0.17257257969555842,0.011453652754426003,-5.540343408938497e-06,-0.12072167545557022,0.24359340965747833,0.013467144221067429,-0.024949049577116966,-0.026998672634363174,idle,0,idle,0
1764635455.677926,none,0,0.0,0,0.0,0.0,0.0,-0.015199850485469915,0.0004883256257463953,0.1725654371145016,0.01145558524876833,-5.537381639442174e-06,-0.120603047311306,0.24331805109977722,0.013464084826409817,-0.02494201436638832,-0.02703694812953472,idle,0,idle,0
1764635455.7782001,none,0,0.0,0,0.0,0.0,0.0,-0.015187606880005963,0.0004882871219464338,0.1725581686634805,0.011457497254014015,-5.538165169127751e-06,-0.12048397213220596,0.2430424839258194,0.013461041264235973,-0.02493484504520893,-0.02707556076347828,idle,0,idle,0
1764635455.87821,none,0,0.0,0,0.0,0.0,0.0,-0.01517591607719447,0.00048825044657602233,0.17255136850532815,0.011459315195679665,-5.501261057361262e-06,-0.12037040293216705,0.24277853965759277,0.013458133675158024,-0.024927854537963867,-0.027112264186143875,idle,0,idle,0
1764635455.978359,none,0,0.0,0,0.0,0.0,0.0,-0.015163667231799384,0.00048821758990392073,0.17254395999847918,0.011461188085377216,-5.533136118174298e-06,-0.12025099992752075,0.24250321090221405,0.013455189764499664,-0.024920377880334854,-0.027150500565767288,idle,0,idle,0
1764635456.0784032,none,0,0.0,0,0.0,0.0,0.0,-0.015151511158939472,0.0004881908212921194,0.17253716470550848,0.011463051661849022,-5.5335990509775e-06,-0.12013308703899384,0.24222691357135773,0.013452387414872646,-0.024912811815738678,-0.027188854292035103,idle,0,idle,0
1764635456.1785138,none,0,0.0,0,0.0,0.0,0.0,-0.015139888785121361,0.00048816297304488663,0.1725304289550571,0.011464854702353477,-5.50328650206211e-06,-0.1200200542807579,0.2419639229774475,0.01344966795295477,-0.024905594065785408,-0.02722545526921749,idle,0,idle,0
1764635456.2786353,none,0,0.0,0,0.0,0.0,0.0,-0.015127729552064588,0.0004881360018635858,0.17252346048785178,0.011466724798083305,-5.531549959414406e-06,-0.11990179866552353,0.2416881024837494,0.013446860946714878,-0.02489805780351162,-0.027263764292001724,idle,0,idle,0
1764635456.3788614,none,0,0.0,0,0.0,0.0,0.0,-0.015115611616428125,0.00048810872916260997,0.17251642546759702,0.011468586511909962,-5.539425728784408e-06,-0.11978380382061005,0.24141357839107513,0.013444053940474987,-0.024890514090657234,-0.027301806956529617,idle,0,idle,0
1764635456.4789786,none,0,0.0,0,0.0,0.0,0.0,-0.015103561738012056,0.00048808064380375185,0.17250944758654657,0.011470459401607513,-5.529425379791064e-06,-0.1196664497256279,0.24114038050174713,0.013441248796880245,-0.024882981553673744,-0.027339618653059006,idle,0,idle,0
1764635456.579095,none,0,0.0,0,0.0,0.0,0.0,-0.015091914351757503,0.0004880552808846013,0.17250251020795573,0.0114722466096282,-5.528409019461833e-06,-0.11955274641513824,0.240877166390419,0.013438565656542778,-0.024875730276107788,-0.0273758452385664,idle,0,idle,0
1764635456.679175,none,0,0.0,0,0.0,0.0,0.0,-0.015079859379501785,0.0004880272825948071,0.17249549918605683,0.011474120430648327,-5.530685484700371e-06,-0.11943519860506058,0.24060368537902832,0.013435759581625462,-0.02486822009086609,-0.027413802221417427,idle,0,idle,0
1764635456.7793205,none,0,0.0,0,0.0,0.0,0.0,-0.015067907823876084,0.00048799999783416667,0.172488723561098,0.011476011015474796,-5.513432370207738e-06,-0.11931881308555603,0.2403315007686615,0.013432996347546577,-0.024860821664333344,-0.027451612055301666,idle,0,idle,0
1764635456.8795712,none,0,0.0,0,0.0,0.0,0.0,-0.015056453276297496,0.00048797369954970684,0.17248206975047456,0.011477846652269363,-5.536400749406312e-06,-0.11920701712369919,0.24007126688957214,0.01343035139143467,-0.024853801354765892,-0.027487801387906075,idle,0,idle,0
1764635456.979669,none,0,0.0,0,0.0,0.0,0.0,-0.01504462667601867,0.0004879460616797346,0.17247519891763008,0.011479759588837624,-5.545204658119474e-06,-0.11909154802560806,0.23980246484279633,0.01342761516571045,-0.024846559390425682,-0.027525441721081734,idle,0,idle,0
1764635457.079989,none,0,0.0,0,0.0,0.0,0.0,-0.015032768156494902,0.0004879179918180601,0.17246818138476186,0.01148169208317995,-5.545375188376056e-06,-0.11897557973861694,0.23953348398208618,0.013424867764115334,-0.024839341640472412,-0.027563193812966347,idle,0,idle,0
1764635457.180117,none,0,0.0,0,0.0,0.0,0.0,-0.015020953952115584,0.0004878925933694523,0.17246129333673343,0.011483605019748211,-5.540720849239733e-06,-0.11886011064052582,0.2392648160457611,0.013422178104519844,-0.024831712245941162,-0.0276012159883976,idle,0,idle,0
1764635457.280197,none,0,0.0,0,0.0,0.0,0.0,-0.015009624113728977,0.00048786777562017877,0.17245472266126294,0.01148542296141386,-5.514303666132037e-06,-0.11874938011169434,0.2390068769454956,0.013419583439826965,-0.024823978543281555,-0.027637630701065063,idle,0,idle,0
1764635457.3803096,none,0,0.0,0,0.0,0.0,0.0,-0.014997843146670506,0.00048784379339183277,0.17244801883981423,0.01148731354624033,-5.541659902519314e-06,-0.11863429844379425,0.23873773217201233,0.013416921719908714,-0.0248159971088171,-0.02767549641430378,idle,0,idle,0
1764635457.4804304,none,0,0.0,0,0.0,0.0,0.0,-0.014986104573931909,0.0004878206076548681,0.1724412111456649,0.01148921623826027,-5.541998689295724e-06,-0.11851945519447327,0.2384701371192932,0.013414288870990276,-0.02480803057551384,-0.02771356701850891,idle,0,idle,0
1764635457.5805554,none,0,0.0,0,0.0,0.0,0.0,-0.014974816164638333,0.00048779932753792313,0.17243469933930622,0.011491050012409687,-5.515924840437947e-06,-0.11840902268886566,0.23821252584457397,0.013411778025329113,-0.02480039931833744,-0.027749788016080856,idle,0,idle,0
1764635457.6806748,none,0,0.0,0,0.0,0.0,0.0,-0.0149631091073157,0.0004877786523652055,0.17242761214163313,0.011492956429719925,-5.5164587138278875e-06,-0.11829406023025513,0.23794694244861603,0.013409202918410301,-0.024792581796646118,-0.027787575498223305,idle,0,idle,0
1764635457.7807717,none,0,0.0,0,0.0,0.0,0.0,-0.014951470817516091,0.0004877587491739394,0.17242113577831586,0.01149485632777214,-5.516990768228425e-06,-0.11818034946918488,0.23767973482608795,0.013406656682491302,-0.02478484809398651,-0.0278250053524971,idle,0,idle,0
1764635457.8808453,none,0,0.0,0,0.0,0.0,0.0,-0.014940310989372402,0.0004877401721571428,0.1724147016686936,0.011496694758534431,-5.517510544450488e-06,-0.11807101964950562,0.2374245673418045,0.013404229655861855,-0.02477746456861496,-0.027861010283231735,idle,0,idle,0
1764635457.9809632,none,0,0.0,0,0.0,0.0,0.0,-0.014928657919181118,0.000487723630208088,0.17240791699273522,0.011498607695102692,-5.518053967534797e-06,-0.1179567351937294,0.23715832829475403,0.013401750475168228,-0.024769823998212814,-0.027898434549570084,idle,0,idle,0
1764635458.0810697,none,0,0.0,0,0.0,0.0,0.0,-0.01491711079297648,0.0004877069043696833,0.17240112817178493,0.011500518769025803,-5.544050964090275e-06,-0.11784335225820541,0.2368946671485901,0.013399290852248669,-0.0247622299939394,-0.0279359370470047,idle,0,idle,0
1764635458.1811824,none,0,0.0,0,0.0,0.0,0.0,-0.014905970088522236,0.00048769254368631414,0.17239464388681183,0.011502369306981564,-5.544318355532596e-06,-0.11773400008678436,0.2366398423910141,0.013396955095231533,-0.02475501038134098,-0.027971608564257622,idle,0,idle,0
1764635458.281288,none,0,0.0,0,0.0,0.0,0.0,-0.014894524354877828,0.0004876765974661133,0.1723881533167802,0.011504287831485271,-5.51944549442851e-06,-0.11762180924415588,0.2363770306110382,0.013394535519182682,-0.024747556075453758,-0.028008777648210526,idle,0,idle,0
1764635458.3817277,none,0,0.0,0,0.0,0.0,0.0,-0.014883034976864551,0.0004876620317275296,0.17238153700349987,0.011506202630698681,-5.519822025235044e-06,-0.11750901490449905,0.2361135631799698,0.0133921317756176,-0.02474008873105049,-0.02804570272564888,idle,0,idle,0
1764635458.481644,none,0,0.0,0,0.0,0.0,0.0,-0.014871561665956372,0.000487646600526394,0.17237489899678263,0.011508123017847538,-5.54493090021424e-06,-0.117396280169487,0.23585043847560883,0.013389714993536472,-0.024732572957873344,-0.02808292582631111,idle,0,idle,0
1764635458.5816886,none,0,0.0,0,0.0,0.0,0.0,-0.0148605161578639,0.00048763235831434347,0.17236850901496203,0.011509967967867851,-5.545131443795981e-06,-0.11728771775960922,0.23559702932834625,0.013387398794293404,-0.02472539059817791,-0.02811829373240471,idle,0,idle,0
1764635458.6818216,none,0,0.0,0,0.0,0.0,0.0,-0.014849120719118813,0.00048761777683697537,0.1723618826547264,0.011511875316500664,-5.520937975234119e-06,-0.1171756461262703,0.23533567786216736,0.013385011814534664,-0.0247179064899683,-0.02815486490726471,idle,0,idle,0
1764635458.7819378,none,0,0.0,0,0.0,0.0,0.0,-0.01483768988363942,0.00048760319628090415,0.17235517651542315,0.01151379756629467,-5.521300863620127e-06,-0.11706309765577316,0.23507364094257355,0.013382620178163052,-0.024710416793823242,-0.028191452845931053,idle,0,idle,0
1764635458.8820457,none,0,0.0,0,0.0,0.0,0.0,-0.01482678430022355,0.0004875889164389824,0.17234900375984585,0.011515631340444088,-5.521716047951486e-06,-0.11695592105388641,0.23482230305671692,0.013380330055952072,-0.024703260511159897,-0.028226472437381744,idle,0,idle,0
1764635458.982266,none,0,0.0,0,0.0,0.0,0.0,-0.014815383168707341,0.00048757481320440784,0.1723422503948119,0.011517544277012348,-5.545900876313681e-06,-0.11684348434209824,0.23456096649169922,0.01337795052677393,-0.024695781990885735,-0.028262829408049583,idle,0,idle,0
1764635459.0823762,none,0,0.0,0,0.0,0.0,0.0,-0.014804145084613682,0.0004875603146862617,0.17233562511375988,0.011519440449774265,-5.546093234443106e-06,-0.116732656955719,0.23430310189723969,0.013375595211982727,-0.024688340723514557,-0.02829878032207489,idle,0,idle,0
1764635459.1826558,none,0,0.0,0,0.0,0.0,0.0,-0.014793198578555308,0.0004875462395329247,0.1723295631327598,0.011521288193762302,-5.546304237213917e-06,-0.11662508547306061,0.2340496927499771,0.013373301364481449,-0.02468109503388405,-0.028333626687526703,idle,0,idle,0
1764635459.282859,none,0,0.0,0,0.0,0.0,0.0,-0.014781899946303974,0.00048753195913324833,0.17232303812021416,0.01152319461107254,-5.546469310502289e-06,-0.11651371419429779,0.23378942906856537,0.013370937667787075,-0.024673650041222572,-0.02836976759135723,idle,0,idle,0
1764635459.383063,none,0,0.0,0,0.0,0.0,0.0,-0.014770674595507599,0.0004875177935982927,0.17231659345988828,0.011525101028382778,-5.5233681450772565e-06,-0.11640307307243347,0.23353055119514465,0.013368592597544193,-0.02466616779565811,-0.028405537828803062,idle,0,idle,0
1764635459.4831731,none,0,0.0,0,0.0,0.0,0.0,-0.014759404388866117,0.00048750406887208744,0.17231021749312675,0.011527018621563911,-5.5236487241927534e-06,-0.11629202961921692,0.23326994478702545,0.013366248458623886,-0.024658726528286934,-0.02844151109457016,idle,0,idle,0
1764635459.5832822,none,0,0.0,0,0.0,0.0,0.0,-0.01474863340363148,0.00048749146188211854,0.17230370443372175,0.011528845876455307,-5.523853815248003e-06,-0.11618540436029434,0.233023002743721,0.013364016078412533,-0.024651620537042618,-0.028475575149059296,idle,0,idle,0
1764635459.683385,none,0,0.0,0,0.0,0.0,0.0,-0.014737369963533219,0.00048747856317731583,0.17229737084023658,0.011530742049217224,-5.546802640310489e-06,-0.11607436090707779,0.23276202380657196,0.013361682184040546,-0.024644197896122932,-0.028511658310890198,idle,0,idle,0
1764635459.7833824,none,0,0.0,0,0.0,0.0,0.0,-0.014726191122699267,0.00048746480149403017,0.17229079350560977,0.011532670818269253,-5.546872216655174e-06,-0.11596380174160004,0.2325044721364975,0.013359359465539455,-0.024636778980493546,-0.028547106310725212,idle,0,idle,0
1764635459.883502,none,0,0.0,0,0.0,0.0,0.0,-0.014715405514297918,0.0004874533694910068,0.17228453850418363,0.01153450645506382,-5.524562311620684e-06,-0.11585719883441925,0.23225539922714233,0.013357147574424744,-0.024629736319184303,-0.028581222519278526,idle,0,idle,0
1764635459.9835825,none,0,0.0,0,0.0,0.0,0.0,-0.014704267534648291,0.00048744033363881363,0.17227798707524766,0.011536424979567528,-5.524813332158374e-06,-0.11574695259332657,0.2319985032081604,0.01335484441369772,-0.024622393772006035,-0.0286166500300169,idle,0,idle,0
1764635460.0836918,none,0,0.0,0,0.0,0.0,0.0,-0.014693161014661511,0.0004874284389710659,0.17227187839447888,0.011538340710103512,-5.525020696950378e-06,-0.11563742905855179,0.23173990845680237,0.013352570123970509,-0.024615049362182617,-0.028651997447013855,idle,0,idle,0
1764635460.1838005,none,0,0.0,0,0.0,0.0,0.0,-0.014682490928356794,0.00048741636309502145,0.17226572836351572,0.011540168896317482,-5.547200544242514e-06,-0.11553184688091278,0.231492817401886,0.013350367546081543,-0.024608055129647255,-0.02868587151169777,idle,0,idle,0
1764635460.2839143,none,0,0.0,0,0.0,0.0,0.0,-0.014671370519670823,0.00048740566544265215,0.17225919088652525,0.011542088352143764,-5.5472755775554106e-06,-0.11542163789272308,0.23123589158058167,0.013348113745450974,-0.024600770324468613,-0.028721187263727188,idle,0,idle,0
1764635460.3839622,none,0,0.0,0,0.0,0.0,0.0,-0.014660292379966917,0.00048739508013946294,0.17225277556100083,0.011543994769454002,-5.547293312702095e-06,-0.11531190574169159,0.23097927868366241,0.013345867395401001,-0.024593502283096313,-0.0287561547011137,idle,0,idle,0
1764635460.4840763,none,0,0.0,0,0.0,0.0,0.0,-0.01464967699981537,0.0004873844458180563,0.1722466622169918,0.01154583040624857,-5.52576557311113e-06,-0.1152067631483078,0.23073311150074005,0.013343706727027893,-0.024586539715528488,-0.028789745643734932,idle,0,idle,0
1764635460.584194,none,0,0.0,0,0.0,0.0,0.0,-0.014638683441220053,0.00048737309039227714,0.17224049551933998,0.011547737754881382,-5.525884262169711e-06,-0.11509799212217331,0.23047710955142975,0.013341463170945644,-0.02457929402589798,-0.028824619948863983,idle,0,idle,0
1764635460.6842673,none,0,0.0,0,0.0,0.0,0.0,-0.014627641554187547,0.00048736246022768807,0.17223401475910563,0.011549655348062515,-5.526012955670012e-06,-0.11498838663101196,0.23022139072418213,0.013339225202798843,-0.02457205392420292,-0.028859391808509827,idle,0,idle,0
1764635460.784385,none,0,0.0,0,0.0,0.0,0.0,-0.014617075572715632,0.0004873527807059589,0.1722278939477032,0.01155148260295391,-5.547251021198463e-06,-0.11488353461027145,0.229976087808609,0.013337090611457825,-0.02456512488424778,-0.02889266423881054,idle,0,idle,0
1764635460.8844132,none,0,0.0,0,0.0,0.0,0.0,-0.014606138193263805,0.00048734119907921803,0.17222176710817877,0.011553394608199596,-5.52624760530307e-06,-0.11477520316839218,0.22972097992897034,0.013334854505956173,-0.02455790899693966,-0.028927206993103027,idle,0,idle,0
1764635460.9845412,none,0,0.0,0,0.0,0.0,0.0,-0.01459518861680846,0.00048733022113292156,0.17221530232230026,0.011555302888154984,-5.526393124455353e-06,-0.11466633528470993,0.22946719825267792,0.013332625851035118,-0.02455073967576027,-0.028961636126041412,idle,0,idle,0
1764635461.084686,none,0,0.0,0,0.0,0.0,0.0,-0.014584263442293022,0.0004873206236252882,0.17220905619503066,0.011557203717529774,-5.54719827050576e-06,-0.11455786973237991,0.2292127013206482,0.013330427929759026,-0.024543551728129387,-0.028995826840400696,idle,0,idle,0
1764635461.184764,none,0,0.0,0,0.0,0.0,0.0,-0.014573777448909725,0.00048731068429584104,0.1722030281774187,0.011559040285646915,-5.526614586415235e-06,-0.11445371061563492,0.2289685606956482,0.013328306376934052,-0.02453666180372238,-0.02902880869805813,idle,0,idle,0
1764635461.2850482,none,0,0.0,0,0.0,0.0,0.0,-0.014562879643155703,0.00048730009165774983,0.17219676292359284,0.011560942977666855,-5.526762834051624e-06,-0.11434540152549744,0.22871465981006622,0.013326093554496765,-0.024529505521059036,-0.0290627833455801,idle,0,idle,0
1764635461.38521,none,0,0.0,0,0.0,0.0,0.0,-0.014552007665138561,0.00048729031122868825,0.1721903489153946,0.011562854051589966,-5.547153705265373e-06,-0.11423711478710175,0.2284620702266693,0.013323904946446419,-0.0245223268866539,-0.029096893966197968,idle,0,idle,0
1764635461.4854422,none,0,0.0,0,0.0,0.0,0.0,-0.014541562006142691,0.0004872808840764633,0.17218447584227994,0.01156468503177166,-5.526870609173784e-06,-0.11413336545228958,0.22821776568889618,0.013321799226105213,-0.024515490978956223,-0.02912931889295578,idle,0,idle,0
1764635461.5856507,none,0,0.0,0,0.0,0.0,0.0,-0.014530720918812974,0.0004872711463078294,0.17217824592144165,0.011566586792469025,-5.546953161683632e-06,-0.11402547359466553,0.22796472907066345,0.013319614343345165,-0.02450837381184101,-0.02916323021054268,idle,0,idle,0
1764635461.6858468,none,0,0.0,0,0.0,0.0,0.0,-0.014519893452230925,0.0004872618713552912,0.17217219354655502,0.011568496003746986,-5.546865850192262e-06,-0.11391786485910416,0.22771099209785461,0.013317443430423737,-0.02450125478208065,-0.02919691614806652,idle,0,idle,0
1764635461.7860222,none,0,0.0,0,0.0,0.0,0.0,-0.014509143115628148,0.00048725140334901235,0.17216589504302235,0.011570394039154053,-5.526937911781715e-06,-0.11381068080663681,0.22746053338050842,0.013315262272953987,-0.02449418418109417,-0.02923036739230156,idle,0,move_up,5
1764635461.886126,none,0,0.0,0,0.0,0.0,0.0,-0.014498717423097565,0.0004872430585255251,0.17215999678297308,0.011572230607271194,-5.526977929548593e-06,-0.11370690166950226,0.22721633315086365,0.013313181698322296,-0.024487357586622238,-0.02926252968609333,move_up,5,move_up,5
1764635461.986189,none,0,0.0,0,0.0,0.0,0.0,-0.015067416450787276,0.00048058259904748676,0.17757822860007738,0.011572657153010368,0.003973203245550394,-0.12708015739917755,0.2198229432106018,0.01331170555204153,-0.024486152455210686,-0.010768650099635124,move_up,5,move_up,5
1764635462.0862892,none,0,0.0,0,0.0,0.0,0.0,-0.015495098358813783,0.00047553701974001415,0.1856321378744311,0.011571118608117104,0.015220554545521736,-0.14625532925128937,0.20749399065971375,0.013309271074831486,-0.024486426264047623,-0.010771948844194412,move_up,5,move_up,5
1764635462.1864214,none,0,0.0,0,0.0,0.0,0.0,-0.015873585619457883,0.0004710859629037936,0.19330665702045724,0.011567558161914349,0.026506463065743446,-0.16457536816596985,0.19593873620033264,0.013306672684848309,-0.024487197399139404,-0.010774974711239338,move_up,5,move_up,5
1764635462.2865043,none,0,0.0,0,0.0,0.0,0.0,-0.016178986394870802,0.00046749094420810427,0.20090378576876022,0.01156193669885397,0.03851723298430443,-0.1827610582113266,0.1847294718027115,0.013303562067449093,-0.024488581344485283,-0.010777974501252174,move_up,5,move_up,5
1764635462.3866003,none,0,0.0,0,0.0,0.0,0.0,-0.016484107478650104,0.00046391954260085945,0.20842221710586598,0.011554805561900139,0.05043376237154007,-0.20088788866996765,0.17397059500217438,0.013300290331244469,-0.02449038438498974,-0.010780677199363708,move_up,5,move_up,5
1764635462.4867728,none,0,0.0,0,0.0,0.0,0.0,-0.016751458144821492,0.00046080175928772573,0.2161755305720736,0.011545700021088123,0.06315592676401138,-0.2196771800518036,0.16315928101539612,0.013296612538397312,-0.02449270710349083,-0.010783359408378601,move_up,5,move_up,5
1764635462.586814,none,0,0.0,0,0.0,0.0,0.0,-0.01700366296480743,0.00045788071034497146,0.22397375145997728,0.011534929275512695,0.07607004046440125,-0.23871183395385742,0.1526256799697876,0.01329270750284195,-0.02449541538953781,-0.010785898193717003,move_up,5,move_up,5
1764635462.6868925,none,0,0.0,0,0.0,0.0,0.0,-0.017223034611070567,0.00045535799362494305,0.23144655347770007,0.01152317225933075,0.0885651707649231,-0.257053941488266,0.1427672952413559,0.013288752175867558,-0.024498356506228447,-0.0107882060110569,move_up,5,move_up,5
1764635462.7870052,none,0,0.0,0,0.0,0.0,0.0,-0.01743364263116652,0.00045295474936655024,0.23921504142803718,0.011509661562740803,0.1016000509262085,-0.27620524168014526,0.13267870247364044,0.01328444853425026,-0.02450176328420639,-0.010790450498461723,move_up,5,move_up,5
1764635462.8870962,none,0,0.0,0,0.0,0.0,0.0,-0.017626797843558112,0.00045077234354247593,0.24697329179404,0.011494748294353485,0.11467275768518448,-0.2954508066177368,0.12285158038139343,0.013279937207698822,-0.02450546622276306,-0.010792577639222145,move_up,5,move_up,5
1764635462.9872327,none,0,0.0,0,0.0,0.0,0.0,-0.017820121372856913,0.00044860829587387507,0.2547543259325839,0.011478613130748272,0.12771300971508026,-0.31486091017723083,0.11318042874336243,0.013275278732180595,-0.024509429931640625,-0.010794569738209248,move_up,5,move_up,5
1764635463.0873039,none,0,0.0,0,0.0,0.0,0.0,-0.017982017847457565,0.00044681949868120776,0.2621983191485074,0.011462151072919369,0.14027255773544312,-0.33352866768836975,0.10410453379154205,0.01327067892998457,-0.02451346069574356,-0.010796360671520233,move_up,5,move_up,5
1764635463.1874063,none,0,0.0,0,0.0,0.0,0.0,-0.018149080264651417,0.00044499464971856474,0.26996667359068,0.01144392043352127,0.1533212810754776,-0.3531057834625244,0.09476467967033386,0.013265787623822689,-0.02451787330210209,-0.010798118077218533,move_up,5,move_up,5
1764635463.2875123,none,0,0.0,0,0.0,0.0,0.0,-0.0182956762358426,0.00044341897047858053,0.27774465874906024,0.011424842290580273,0.1664378046989441,-0.3727932572364807,0.08551906794309616,0.013260768726468086,-0.02452247589826584,-0.01079974789172411,move_up,5,move_up,5
1764635463.3875878,none,0,0.0,0,0.0,0.0,0.0,-0.018433658740726958,0.0004419567637046085,0.2851875940786822,0.011405616998672485,0.17894653975963593,-0.39172598719596863,0.07678035646677017,0.01325589045882225,-0.02452707290649414,-0.010801209136843681,move_up,5,move_up,5
1764635463.487693,none,0,0.0,0,0.0,0.0,0.0,-0.018575854234509546,0.0004404677646055845,0.2929615205260351,0.011384806595742702,0.19197586178779602,-0.4116063117980957,0.0677780732512474,0.013250736519694328,-0.024531982839107513,-0.010802630335092545,move_up,5,move_up,5
1764635463.5877218,none,0,0.0,0,0.0,0.0,0.0,-0.018693162008581926,0.0004392799191283934,0.3006969420927827,0.011363163590431213,0.20500409603118896,-0.4314427971839905,0.05880558490753174,0.013245518319308758,-0.02453705668449402,-0.010803950019180775,move_up,5,move_up,5
1764635463.6879659,none,0,0.0,0,0.0,0.0,0.0,-0.018829200266084367,0.0004378876398713887,0.3082136839162692,0.011341698467731476,0.21753115952014923,-0.45084840059280396,0.05024392902851105,0.01324042771011591,-0.024542074650526047,-0.010805134661495686,move_up,5,move_up,5
1764635463.7880793,none,0,0.0,0,0.0,0.0,0.0,-0.018917505044818976,0.0004370621571928593,0.3159407183522426,0.011318638920783997,0.23061221837997437,-0.4708627760410309,0.04145978391170502,0.013235142454504967,-0.02454734407365322,-0.010806279256939888,move_up,5,move_up,5
1764635463.8881855,none,0,0.0,0,0.0,0.0,0.0,-0.019046175972657682,0.00043578452176415666,0.323354448393396,0.011296210810542107,0.24294523894786835,-0.49019554257392883,0.0331544503569603,0.0132300965487957,-0.02455245703458786,-0.010807286947965622,move_up,5,move_up,5
1764635463.9882722,none,0,0.0,0,0.0,0.0,0.0,-0.019131467041619298,0.0004350202461111352,0.3310535156586742,0.01127217523753643,0.2559341788291931,-0.5103184580802917,0.024465855211019516,0.013224801979959011,-0.02455786056816578,-0.010808256454765797,move_up,5,move_up,5
1764635464.0882974,none,0,0.0,0,0.0,0.0,0.0,-0.01925304573571042,0.0004338558569913979,0.3388540517592714,0.011247807182371616,0.2689419686794281,-0.5308607220649719,0.015819575637578964,0.013219458051025867,-0.024563366547226906,-0.010809149593114853,move_up,5,move_up,5
1764635464.188399,none,0,0.0,0,0.0,0.0,0.0,-0.019362604166537116,0.00043283417470835726,0.34628799640233765,0.011223913170397282,0.2813555598258972,-0.5505163669586182,0.007558869663625956,0.013214338570833206,-0.02456868812441826,-0.010809940285980701,move_up,5,move_up,5
1764635464.2884953,none,0,0.0,0,0.0,0.0,0.0,-0.019444218199142792,0.0004321467579084307,0.3539967096865939,0.011198611930012703,0.2943519353866577,-0.5709918141365051,-0.000991149339824915,0.013208989053964615,-0.02457433007657528,-0.010810690931975842,move_up,5,move_up,5
1764635464.3886223,none,0,0.0,0,0.0,0.0,0.0,-0.0195544488560421,0.0004311533760876442,0.36177927188515263,0.011172755621373653,0.3073747754096985,-0.5918067097663879,-0.00953038688749075,0.013203615322709084,-0.02458001673221588,-0.010811381042003632,move_up,5,move_up,5
1764635464.4887123,none,0,0.0,0,0.0,0.0,0.0,-0.01963341469919467,0.00043050878375091466,0.36916753083541054,0.011147663928568363,0.3198338449001312,-0.6116253137588501,-0.017739424481987953,0.013198436237871647,-0.024585522711277008,-0.010811982676386833,move_up,5,move_up,5
1764635464.5888145,none,0,0.0,0,0.0,0.0,0.0,-0.019741302341018722,0.00042956437060142944,0.3768787568688431,0.011121158488094807,0.33276569843292236,-0.6324558258056641,-0.026224486529827118,0.013193054124712944,-0.02459130994975567,-0.01081255916506052,move_up,5,move_up,5
1764635464.6889224,none,0,0.0,0,0.0,0.0,0.0,-0.019796242672516756,0.00042921928521199866,0.38458654484023075,0.011094140820205212,0.3458995819091797,-0.6534010171890259,-0.03465588763356209,0.01318759098649025,-0.024597175419330597,-0.010813088156282902,move_up,5,move_up,5
1764635464.7890253,none,0,0.0,0,0.0,0.0,0.0,-0.019896069884789834,0.00042837170478779506,0.39203489456090695,0.01106827799230814,0.35845062136650085,-0.6737558245658875,-0.04283987730741501,0.013182418420910835,-0.024602802470326424,-0.010813540779054165,move_up,5,move_up,5
1764635464.8892162,none,0,0.0,0,0.0,0.0,0.0,-0.019965347349762207,0.00042788812778549005,0.39973174450904386,0.011040778830647469,0.37156450748443604,-0.6949151754379272,-0.05128071457147598,0.013177018612623215,-0.024608714506030083,-0.010813973844051361,move_up,5,move_up,5
1764635464.989244,none,0,0.0,0,0.0,0.0,0.0,-0.020049727764384365,0.000427239572995524,0.407431891485029,0.011013410985469818,0.38466930389404297,-0.7162222862243652,-0.0597246028482914,0.013171622529625893,-0.024614587426185608,-0.010814359411597252,move_up,5,move_up,5
1764635465.089373,none,0,0.0,0,0.0,0.0,0.0,-0.020111010249222253,0.00042684557647138996,0.4148258100058274,0.01098674163222313,0.3973516523838043,-0.7368036508560181,-0.06785392016172409,0.01316643413156271,-0.024620292708277702,-0.010814694687724113,move_up,5,move_up,5
1764635465.1895595,none,0,0.0,0,0.0,0.0,0.0,-0.020192197696112822,0.00042625286792334995,0.4225494447853178,0.01095876656472683,0.4105910062789917,-0.7584561109542847,-0.07633538544178009,0.013161038979887962,-0.024626219645142555,-0.010815005749464035,move_up,5,move_up,5
1764635465.2897906,none,0,0.0,0,0.0,0.0,0.0,-0.02027675338027171,0.00042562764037315244,0.43022417380450695,0.010930846445262432,0.42378532886505127,-0.780119001865387,-0.08478531986474991,0.013155661523342133,-0.024632178246974945,-0.010815286077558994,move_up,5,move_up,5
1764635465.390066,none,0,0.0,0,0.0,0.0,0.0,-0.020341657341392684,0.00042522672311034223,0.437913364195663,0.010902615264058113,0.4371187686920166,-0.8019803762435913,-0.09325219690799713,0.013150263577699661,-0.024638177827000618,-0.010815533809363842,move_up,5,move_up,5
1764635465.490269,none,0,0.0,0,0.0,0.0,0.0,-0.020419319778785895,0.00042468291498138407,0.4452967107674525,0.010875309817492962,0.44993510842323303,-0.823135495185852,-0.10138074308633804,0.013145091012120247,-0.024643931537866592,-0.010815748944878578,move_up,5,move_up,5
1764635465.5905228,none,0,0.0,0,0.0,0.0,0.0,-0.020502613779635755,0.000424090776270207,0.4529857678932885,0.01084698736667633,0.46334218978881836,-0.8453478813171387,-0.10982673615217209,0.013139667920768261,-0.02464998885989189,-0.010815944522619247,move_up,5,move_up,5
1764635465.6906297,none,0,0.0,0,0.0,0.0,0.0,-0.020567740979260958,0.00042370976057113144,0.4606380536558594,0.010818234644830227,0.4768018126487732,-0.8675960302352905,-0.11834225058555603,0.013134265318512917,-0.02465600147843361,-0.010816117748618126,move_up,5,move_up,5
1764635465.7908523,none,0,0.0,0,0.0,0.0,0.0,-0.0206238754489442,0.0004234133146462085,0.4679960345296076,0.010790803469717503,0.48983246088027954,-0.8891658782958984,-0.12653960287570953,0.013129087164998055,-0.024661799892783165,-0.010816264897584915,move_up,5,move_up,5
1764635465.891039,none,0,0.0,0,0.0,0.0,0.0,-0.020687934541150844,0.0004230528672922877,0.4756706483890426,0.01076193992048502,0.5034905672073364,-0.911877453327179,-0.1350516676902771,0.013123677112162113,-0.02466786652803421,-0.010816399939358234,move_up,5,move_up,5
1764635465.9911907,none,0,0.0,0,0.0,0.0,0.0,-0.02075288355334573,0.00042268502198049924,0.4833201013830675,0.01073311548680067,0.5171870589256287,-0.9347070455551147,-0.14359064400196075,0.013118252158164978,-0.024673962965607643,-0.010816517286002636,move_up,5,move_up,5
1764635466.091215,none,0,0.0,0,0.0,0.0,0.0,-0.02084594222023603,0.000422003367595145,0.4906444299236112,0.010705621913075447,0.5303117632865906,-0.9567701816558838,-0.1517931967973709,0.0131130525842309,-0.024679800495505333,-0.010816616006195545,move_up,5,move_up,5
1764635466.1913276,none,0,0.0,0,0.0,0.0,0.0,-0.02085926494501663,0.0004221993603767788,0.49826904303520614,0.010676546953618526,0.5442772507667542,-0.9799330830574036,-0.16037613153457642,0.013107610866427422,-0.0246859323233366,-0.010816707275807858,move_up,5,move_up,5
1764635466.2914178,none,0,0.0,0,0.0,0.0,0.0,-0.020928047678695896,0.0004218042240545319,0.5059102195914902,0.010647603310644627,0.5582417249679565,-1.0033985376358032,-0.1689794808626175,0.013102197088301182,-0.024692075327038765,-0.010816785506904125,move_up,5,move_up,5
1764635466.391644,none,0,0.0,0,0.0,0.0,0.0,-0.020980172942834892,0.00042158765087840213,0.5135081554230478,0.010618642903864384,0.5722759962081909,-1.0269511938095093,-0.17761944234371185,0.013096729293465614,-0.024698229506611824,-0.010816854424774647,move_up,5,move_up,5
1764635466.4918497,none,0,0.0,0,0.0,0.0,0.0,-0.021062435653611766,0.00042103927519200103,0.5208239611036505,0.010590868070721626,0.5858268141746521,-1.049894094467163,-0.1859132945537567,0.013091450557112694,-0.024704165756702423,-0.010816913098096848,move_up,5,move_up,5
1764635466.5920813,none,0,0.0,0,0.0,0.0,0.0,-0.021130167418129703,0.0004206659847840636,0.5284468823333097,0.010561838746070862,0.6001120805740356,-1.0740513801574707,-0.19461190700531006,0.013085979036986828,-0.02471039816737175,-0.010816967114806175,move_up,5,move_up,5
1764635466.6921935,none,0,0.0,0,0.0,0.0,0.0,-0.021170072893431154,0.00042058588711742304,0.5360052416406403,0.010532865300774574,0.6144686937332153,-1.098259687423706,-0.2033233344554901,0.013080453500151634,-0.024716665968298912,-0.010817015543580055,move_up,5,move_up,5
1764635466.7923071,none,0,0.0,0,0.0,0.0,0.0,-0.021245394373726065,0.00042012116066194205,0.5433221691350066,0.01050509698688984,0.6284186840057373,-1.1219995021820068,-0.21173258125782013,0.013075144961476326,-0.024722695350646973,-0.010817057453095913,move_up,5,move_up,5
1764635466.892513,none,0,0.0,0,0.0,0.0,0.0,-0.021295010811530457,0.00041994176317271346,0.5508641222661135,0.010476149618625641,0.6430035829544067,-1.1467398405075073,-0.22051306068897247,0.01306956633925438,-0.024729035794734955,-0.010817098431289196,move_up,5,move_up,5
1764635466.9927154,none,0,0.0,0,0.0,0.0,0.0,-0.02134968365327107,0.00041971323881991095,0.5584183728539239,0.010447167791426182,0.6577581763267517,-1.1718628406524658,-0.2292952835559845,0.013063989579677582,-0.024735404178500175,-0.010817136615514755,move_up,5,move_up,5
1764635467.0929186,none,0,0.0,0,0.0,0.0,0.0,-0.021413124406961942,0.00041938865659077885,0.5659805517582077,0.010418380610644817,0.672676682472229,-1.1973482370376587,-0.23815126717090607,0.01305833738297224,-0.024741830304265022,-0.010817174799740314,move_up,5,move_up,5
1764635467.193168,none,0,0.0,0,0.0,0.0,0.0,-0.021473065234027207,0.00041909398116418955,0.5731814405942162,0.010390542447566986,0.6870484948158264,-1.2219332456588745,-0.24668091535568237,0.013052893802523613,-0.02474801614880562,-0.01081721018999815,move_up,5,move_up,5
1764635467.2933588,none,0,0.0,0,0.0,0.0,0.0,-0.02149236933412705,0.00041923079933047327,0.5806911223709339,0.010361703112721443,0.7023056745529175,-1.2479305267333984,-0.2556333541870117,0.013047155924141407,-0.024754542857408524,-0.010817247442901134,move_up,5,move_up,5
1764635467.3935142,none,0,0.0,0,0.0,0.0,0.0,-0.021595015983564315,0.00041850123511739566,0.5882181715843174,0.01033300906419754,0.7176297307014465,-1.2744261026382446,-0.26458805799484253,0.013041353784501553,-0.024761158972978592,-0.010817286558449268,move_up,5,move_up,5
1764635467.493704,none,0,0.0,0,0.0,0.0,0.0,-0.021597103108516702,0.00041880061835921213,0.5953933624894069,0.010305387899279594,0.732623279094696,-1.3000257015228271,-0.27328193187713623,0.013035754673182964,-0.024767545983195305,-0.010817325673997402,move_up,5,move_up,5
1764635467.5939343,none,0,0.0,0,0.0,0.0,0.0,-0.021651140357973712,0.0004185781236703503,0.6028445593289103,0.010276594199240208,0.7483076453208923,-1.3270764350891113,-0.28229522705078125,0.013029882684350014,-0.024774296209216118,-0.010817369446158409,move_up,5,move_up,5
1764635467.694115,none,0,0.0,0,0.0,0.0,0.0,-0.021694506208313258,0.0004184629965611309,0.6103313986717226,0.010247738100588322,0.7643248438835144,-1.3547245264053345,-0.29142239689826965,0.013023879379034042,-0.024781176820397377,-0.01081741601228714,move_up,5,move_up,5
1764635467.794327,none,0,0.0,0,0.0,0.0,0.0,-0.021759862201564215,0.0004181075366956579,0.6174900468560041,0.010220085270702839,0.7798323631286621,-1.3816463947296143,-0.3001829981803894,0.013018039986491203,-0.024787865579128265,-0.01081746444106102,move_up,5,move_up,5
1764635467.894597,none,0,0.0,0,0.0,0.0,0.0,-0.021805730609809504,0.00041796408674343963,0.6248734436627339,0.01019144244492054,0.7961286902427673,-1.4098918437957764,-0.30939117074012756,0.013011960312724113,-0.024794913828372955,-0.010817520320415497,move_up,5,move_up,5
1764635467.994788,none,0,0.0,0,0.0,0.0,0.0,-0.0218770127007246,0.0004175409885985675,0.6319749836790732,0.010164166800677776,0.8120198845863342,-1.437622308731079,-0.3182254433631897,0.013006000779569149,-0.02480173669755459,-0.010817577131092548,move_up,5,move_up,5
1764635468.0950267,none,0,0.0,0,0.0,0.0,0.0,-0.021949079779469364,0.0004171240605235911,0.6393797222458708,0.010135854594409466,0.8288943767547607,-1.467131495475769,-0.32750335335731506,0.012999786995351315,-0.024808993563055992,-0.010817640461027622,move_up,5,move_up,5
1764635468.195254,none,0,0.0,0,0.0,0.0,0.0,-0.021993423360227648,0.00041698032708216556,0.6466877330856369,0.010107699781656265,0.8459224104881287,-1.4968407154083252,-0.33688968420028687,0.01299341768026352,-0.0248163603246212,-0.010817710310220718,move_up,5,move_up,5
1764635468.2954774,none,0,0.0,0,0.0,0.0,0.0,-0.022057737033056236,0.0004166311022389227,0.6539947047527247,0.010079696774482727,0.8632574677467346,-1.5272786617279053,-0.34621426463127136,0.012986980378627777,-0.02482384443283081,-0.010817785747349262,move_up,5,move_up,5
1764635468.395513,none,0,0.0,0,0.0,0.0,0.0,-0.022106080108278203,0.00041643213531271774,0.6609966621708658,0.010052657686173916,0.8802450895309448,-1.5571258068084717,-0.35526901483535767,0.012980693951249123,-0.024831270799040794,-0.010817863047122955,move_up,5,move_up,5
1764635468.495719,none,0,0.0,0,0.0,0.0,0.0,-0.022161909753749896,0.0004161607191221464,0.668259093161699,0.010024725459516048,0.8982498049736023,-1.588870644569397,-0.36472466588020325,0.012974005192518234,-0.024839133024215698,-0.010817949660122395,move_up,5,move_up,5
1764635468.5960882,none,0,0.0,0,0.0,0.0,0.0,-0.022182207800092328,0.00041623672567597407,0.6754936195762633,0.009997055865824223,0.9166791439056396,-1.6213514804840088,-0.37421801686286926,0.012967213056981564,-0.024847136810421944,-0.010818040929734707,move_up,5,move_up,5
1764635468.6961918,none,0,0.0,0,0.0,0.0,0.0,-0.022230179170444914,0.0004160117521224611,0.6823922497766719,0.00997075717896223,0.9346486330032349,-1.6531955003738403,-0.3833858370780945,0.012960507534444332,-0.02485508844256401,-0.010818135924637318,move_up,5,move_up,5
1764635468.7963102,none,0,0.0,0,0.0,0.0,0.0,-0.02223252637626119,0.00041624961596311953,0.6895209412311719,0.009943199343979359,0.9537938237190247,-1.6870603561401367,-0.3930099308490753,0.012953367084264755,-0.02486356347799301,-0.010818238370120525,move_up,5,move_up,5
1764635468.8964043,none,0,0.0,0,0.0,0.0,0.0,-0.022306721020140707,0.0004157591001195378,0.6966380439925481,0.009916084818542004,0.9733466506004333,-1.7220107316970825,-0.4026322662830353,0.012946100905537605,-0.02487226016819477,-0.01081834640353918,move_up,5,move_up,5
1764635468.996571,none,0,0.0,0,0.0,0.0,0.0,-0.022401799362047045,0.00041505296590935284,0.7036670894247331,0.009889109991490841,0.9932319521903992,-1.757728934288025,-0.41225236654281616,0.01293863169848919,-0.024881277233362198,-0.010818460024893284,move_up,5,move_up,5
1764635469.0966754,none,0,0.0,0,0.0,0.0,0.0,-0.022416489035416296,0.000415121105124667,0.710387197372822,0.009863351471722126,1.012987732887268,-1.7931259870529175,-0.4214734733104706,0.012931235134601593,-0.02489023469388485,-0.010818574577569962,move_up,5,move_up,5
1764635469.1967971,none,0,0.0,0,0.0,0.0,0.0,-0.02246895518297793,0.0004148107803688563,0.7173149565164558,0.009836843237280846,1.0340198278427124,-1.8310396671295166,-0.43113815784454346,0.012923342175781727,-0.02489989809691906,-0.010818696580827236,move_up,5,move_up,5
1764635469.2967677,none,0,0.0,0,0.0,0.0,0.0,-0.022539182960290952,0.00041431281608930324,0.7241403982221976,0.00981047097593546,1.0555213689804077,-1.8700159788131714,-0.4407234191894531,0.01291518285870552,-0.024909943342208862,-0.010818823240697384,move_up,5,move_up,5
1764635469.3969498,none,0,0.0,0,0.0,0.0,0.0,-0.022618873562808936,0.0004136944476301348,0.730659290223377,0.009785624220967293,1.0768909454345703,-1.9089611768722534,-0.4499129354953766,0.012907084077596664,-0.024919990450143814,-0.010818946175277233,move_up,5,move_up,5
1764635469.4970431,none,0,0.0,0,0.0,0.0,0.0,-0.022583523049420094,0.00041418753023788116,0.737313708543183,0.009760042652487755,1.0998685359954834,-1.9506572484970093,-0.4594164192676544,0.012898334302008152,-0.024930890649557114,-0.010819077491760254,move_up,5,move_up,5
1764635469.597129,none,0,0.0,0,0.0,0.0,0.0,-0.022652530808117737,0.00041363799814784596,0.7438940309051479,0.009734919294714928,1.1235767602920532,-1.9942271709442139,-0.4687996804714203,0.012889289297163486,-0.024942340329289436,-0.010819206945598125,move_up,5,move_up,5
1764635469.6972647,none,0,0.0,0,0.0,0.0,0.0,-0.022698681061795914,0.0004132744029833547,0.75010172142169,0.009711440652608871,1.1471894979476929,-2.037822961807251,-0.4775717258453369,0.012880200520157814,-0.02495393343269825,-0.010819332674145699,move_up,5,move_up,5
1764635469.7973928,none,0,0.0,0,0.0,0.0,0.0,-0.022750497006284086,0.00041282830808057826,0.7563861060854287,0.009687631390988827,1.1725425720214844,-2.084881544113159,-0.48651209473609924,0.012870353646576405,-0.024966584518551826,-0.010819459334015846,move_up,5,move_up,5
1764635469.8976665,none,0,0.0,0,0.0,0.0,0.0,-0.0227239356005514,0.0004130968093149139,0.7625045273345661,0.00966472178697586,1.1990327835083008,-2.134161949157715,-0.49507763981819153,0.012860001064836979,-0.02497987449169159,-0.010819580405950546,move_up,5,move_up,5
1764635469.9979033,none,0,0.0,0,0.0,0.0,0.0,-0.022838431167789247,0.0004119533680342416,0.7682233389846186,0.009643754921853542,1.2254865169525146,-2.184152841567993,-0.5028480291366577,0.012849520891904831,-0.024993520230054855,-0.010819686576724052,move_up,5,move_up,5
1764635470.0979111,none,0,0.0,0,0.0,0.0,0.0,-0.022814166292586417,0.00041209345974744946,0.7739134165540407,0.009623193182051182,1.2542954683303833,-2.238633394241333,-0.5101798176765442,0.012838078662753105,-0.025008538737893105,-0.010819782502949238,move_up,5,move_up,5
1764635470.1982248,none,0,0.0,0,0.0,0.0,0.0,-0.02296886166441356,0.000410433691595106,0.7793197641072516,0.009604510851204395,1.2842376232147217,-2.2963294982910156,-0.5165128707885742,0.012825881130993366,-0.02502461150288582,-0.010819855146110058,move_up,5,move_up,5
1764635470.2983081,none,0,0.0,0,0.0,0.0,0.0,-0.022928599172138995,0.00041056284484807274,0.7843506692340442,0.009588045999407768,1.3156986236572266,-2.3570852279663086,-0.5213389992713928,0.01281297393143177,-0.025041591376066208,-0.010819894261658192,move_up,5,move_up,5
1764635470.3983543,none,0,0.0,0,0.0,0.0,0.0,-0.022954106309047234,0.00040996867126159907,0.788795775122668,0.009574763476848602,1.3472777605056763,-2.4191219806671143,-0.5239587426185608,0.012799671851098537,-0.025059062987565994,-0.010819877497851849,move_up,5,move_up,5
1764635470.4984713,none,0,0.0,0,0.0,0.0,0.0,-0.02309922695588222,0.00040537160647062504,0.7928746176084699,0.009566335007548332,1.381099820137024,-2.486825466156006,-0.5243465900421143,0.012730519287288189,-0.02507045865058899,-0.010820838622748852,move_up,5,move_up,5
1764635470.5985854,none,0,0.0,0,0.0,0.0,0.0,-0.023348513656998346,0.0003826872093300217,0.796164818014015,0.009562039747834206,1.4146653413772583,-2.554619789123535,-0.5240732431411743,0.012315874919295311,-0.025072170421481133,-0.010821706615388393,move_up,5,move_up,5
1764635470.698665,none,0,0.0,0,0.0,0.0,0.0,-0.02388303226040515,0.0003503435703525693,0.7988724395648888,0.009558298625051975,1.448108434677124,-2.6262807846069336,-0.5143275260925293,0.011760540306568146,-0.02507440559566021,-0.010821480304002762,move_up,5,move_up,5
1764635470.798805,none,0,0.0,0,0.0,0.0,0.0,-0.023690403792934623,0.00032036786895029323,0.800844710174962,0.009555653668940067,1.4796301126480103,-2.695033073425293,-0.49574849009513855,0.011112567968666553,-0.025076620280742645,-0.010821106843650341,move_up,5,move_up,5
1764635470.8989084,none,0,0.0,0,0.0,0.0,0.0,-0.022969975275872134,0.00029251017586025854,0.8021312297297508,0.009553397074341774,1.5050803422927856,-2.752901554107666,-0.4689817726612091,0.01040536630898714,-0.02507902681827545,-0.010820616036653519,move_up,5,move_up,5
1764635470.999077,none,0,0.0,0,0.0,0.0,0.0,-0.02268454258680069,0.0002563409976769693,0.803002349210467,0.009551177732646465,1.5226448774337769,-2.7992513179779053,-0.43327710032463074,0.009613768197596073,-0.025081833824515343,-0.010820048861205578,move_up,5,move_up,5
1764635471.099126,none,0,0.0,0,0.0,0.0,0.0,-0.022449494671954437,0.00022343111665266106,0.8035914533464883,0.009358540177345276,1.5314159393310547,-2.8294198513031006,-0.39384856820106506,0.008811349049210548,-0.025082584470510483,-0.010819507762789726,move_up,5,move_up,5
1764635471.1993587,none,0,0.0,0,0.0,0.0,0.0,-0.02210293854656899,0.00019437579610436342,0.8039918577785965,0.009111217223107815,1.5338119268417358,-2.846123218536377,-0.35566896200180054,0.008043778128921986,-0.025083065032958984,-0.010819041170179844,move_up,5,move_up,5
1764635471.2998023,none,0,0.0,0,0.0,0.0,0.0,-0.021337792731085024,0.00017192904576534502,0.8042362839816357,0.008888489566743374,1.533790111541748,-2.8544163703918457,-0.3245983123779297,0.007349263411015272,-0.02508275769650936,-0.01081868913024664,move_up,5,move_up,5
1764635471.399956,none,0,0.0,0,0.0,0.0,0.0,-0.020696187877210684,0.00014875030054423618,0.8043768500282152,0.008676321245729923,1.5336750745773315,-2.860849142074585,-0.2995430827140808,0.00667300121858716,-0.025082426145672798,-0.010818415321409702,move_up,5,move_up,5
1764635471.4999435,none,0,0.0,0,0.0,0.0,0.0,-0.020956343531066634,0.00011960458350932705,0.8044301003445329,0.008482608012855053,1.5337098836898804,-2.8675754070281982,-0.2820955812931061,0.006043992005288601,-0.025082465261220932,-0.010818193666636944,move_up,5,move_up,5
1764635471.6000676,none,0,0.0,0,0.0,0.0,0.0,-0.02159151375375638,9.095731734644694e-05,0.8044424122094764,0.008318192325532436,1.534712553024292,-2.8748271465301514,-0.2719487249851227,0.005499102175235748,-0.025082863867282867,-0.010818015784025192,move_up,5,move_up,5
1764635471.700185,none,0,0.0,0,0.0,0.0,0.0,-0.021046018764193843,7.320632631975903e-05,0.8044730009725809,0.008160618133842945,1.5364960432052612,-2.8790299892425537,-0.26547494530677795,0.00497868936508894,-0.025083409622311592,-0.010817856527864933,move_up,5,move_up,5
1764635471.800239,none,0,0.0,0,0.0,0.0,0.0,-0.018264905258525733,7.61060607085382e-05,0.8045539962861306,0.008016739040613174,1.539694905281067,-2.8790462017059326,-0.2609064280986786,0.004522922448813915,-0.02508396841585636,-0.010817806236445904,move_up,5,move_up,5
1764635471.9004107,none,0,0.0,0,0.0,0.0,0.0,-0.015594405209186913,7.836465024521112e-05,0.8046193807071733,0.007884840480983257,1.5429258346557617,-2.8790464401245117,-0.2575048506259918,0.004091888200491667,-0.025084329769015312,-0.010817673988640308,move_up,5,move_up,5
1764635472.0005233,none,0,0.0,0,0.0,0.0,0.0,-0.014648110165719888,6.837185699903768e-05,0.8046398423367207,0.007777527906000614,1.5439976453781128,-2.8790462017059326,-0.25587186217308044,0.0037051858380436897,-0.02508472464978695,-0.01081757340580225,move_up,5,move_up,5
1764635472.1006145,none,0,0.0,0,0.0,0.0,0.0,-0.01308609595448907,6.471535860800662e-05,0.8046707016092793,0.0076931435614824295,1.5461047887802124,-2.8790462017059326,-0.25516292452812195,0.003361503593623638,-0.02508520521223545,-0.01081753708422184,move_up,5,move_up,5
1764635472.2007444,none,0,0.0,0,0.0,0.0,0.0,-0.010501924484747157,7.074061506915636e-05,0.8047141399006982,0.007624180056154728,1.5497242212295532,-2.8790459632873535,-0.25477591156959534,0.0030651744455099106,-0.025085559114813805,-0.010817483067512512,move_up,5,move_up,5
1764635472.3008647,none,0,0.0,0,0.0,0.0,0.0,-0.008217184406737427,7.486072275849937e-05,0.8047446568575383,0.007564940024167299,1.552969217300415,-2.8790462017059326,-0.2546979486942291,0.0027849730104207993,-0.025086084380745888,-0.010816019028425217,move_up,5,move_up,5
1764635472.4009511,none,0,0.0,0,0.0,0.0,0.0,-0.00650520030818973,7.572629834971867e-05,0.8047626607538543,0.0075205545872449875,1.5554118156433105,-2.879046678543091,-0.25470447540283203,0.0025334663223475218,-0.02508646808564663,-0.010813034139573574,move_up,5,move_up,5
1764635472.5010865,none,0,0.0,0,0.0,0.0,0.0,-0.004529735912945516,8.001502041896026e-05,0.8047782298107224,0.007490049581974745,1.5582301616668701,-2.879047393798828,-0.2547106444835663,0.0023158639669418335,-0.025086523965001106,-0.010810211300849915,move_up,5,move_up,5
1764635472.601195,none,0,0.0,0,0.0,0.0,0.0,-0.0022277031489732913,8.71569348339158e-05,0.8047893431065457,0.007466774433851242,1.5615140199661255,-2.8790478706359863,-0.25471678376197815,0.0021095159463584423,-0.025086035951972008,-0.010807383805513382,move_up,5,move_up,5
1764635472.7014065,none,0,0.0,0,0.0,0.0,0.0,-0.00023022912678088118,9.28533050800768e-05,0.8047928627901555,0.007451374549418688,1.5643635988235474,-2.8790485858917236,-0.2547224462032318,0.0019220791291445494,-0.025085056200623512,-0.010804770514369011,move_up,5,move_up,5
1764635472.8016462,none,0,0.0,0,0.0,0.0,0.0,0.0016668789761771642,9.892925352190682e-05,0.8047909346493612,0.007444450631737709,1.5670698881149292,-2.879049062728882,-0.2547277510166168,0.001758489292114973,-0.025083184242248535,-0.01080229040235281,move_up,5,move_up,5
1764635472.9019225,none,0,0.0,0,0.0,0.0,0.0,0.003685027253049323,0.00010629105205996647,0.804783247336452,0.007442900445312262,1.5699489116668701,-2.879049777984619,-0.25473299622535706,0.0016028679674491286,-0.025081239640712738,-0.010799847543239594,move_up,5,stop,8
1764635473.0019383,none,0,0.0,0,0.0,0.0,0.0,0.005713970099984294,0.00011439548787228868,0.8047696613846567,0.007443833630532026,1.5728431940078735,-2.8790502548217773,-0.25473785400390625,0.0014605466276407242,-0.025078825652599335,-0.010797581635415554,stop,8,stop,8
1764635473.1020124,none,0,0.0,0,0.0,0.0,0.0,0.006760899128876421,0.00012091063426973513,0.8047603519483055,0.007441985886543989,1.574337124824524,-2.8790507316589355,-0.25474226474761963,0.0014348223339766264,-0.02509975992143154,-0.010795587673783302,stop,8,stop,8
1764635473.20232,none,0,0.0,0,0.0,0.0,0.0,0.006766236914445504,0.00012008453905363255,0.8047603032726971,0.0074400752782821655,1.5743457078933716,-2.8790509700775146,-0.25474733114242554,0.0014174876268953085,-0.02512465976178646,-0.010793372988700867,stop,8,stop,8
1764635473.302623,none,0,0.0,0,0.0,0.0,0.0,0.006771741936357963,0.00011925312714746128,0.8047602529332453,0.0074381292797625065,1.5743545293807983,-2.8790512084960938,-0.25475239753723145,0.001400024862959981,-0.02514951303601265,-0.010791141539812088,stop,8,stop,8
1764635473.402789,none,0,0.0,0,0.0,0.0,0.0,0.006777177370627628,0.00011844726677883664,0.8047602031440857,0.007436234038323164,1.5743632316589355,-2.879051446914673,-0.2547573447227478,0.0013830853858962655,-0.02517368458211422,-0.010788978077471256,stop,8,stop,8
1764635473.5028656,none,0,0.0,0,0.0,0.0,0.0,0.006782936626222755,0.00011763037061847722,0.8047601502004419,0.007434285245835781,1.574372410774231,-2.879051685333252,-0.2547623813152313,0.0013658804818987846,-0.025198349729180336,-0.010786754079163074,stop,8,stop,8
1764635473.6029775,none,0,0.0,0,0.0,0.0,0.0,0.0067885497788301415,0.00011684182230883984,0.8047600985297519,0.007432391867041588,1.5743813514709473,-2.879051923751831,-0.2547672390937805,0.0013492666184902191,-0.025222232565283775,-0.010784607380628586,stop,8,stop,8
1764635473.70309,none,0,0.0,0,0.0,0.0,0.0,0.006794472672890437,0.00011602508750015094,0.8047600438804651,0.007430417463183403,1.5743907690048218,-2.87905216217041,-0.2547723054885864,0.0013320447178557515,-0.02524690516293049,-0.010782390832901001,stop,8,stop,8
1764635473.8032012,none,0,0.0,0,0.0,0.0,0.0,0.00680064283296802,0.00011520529239756905,0.8047599867781227,0.007428404409438372,1.574400544166565,-2.8790524005889893,-0.2547774016857147,0.0013147291028872132,-0.02527162991464138,-0.01078016310930252,stop,8,stop,8
1764635473.9033158,none,0,0.0,0,0.0,0.0,0.0,0.006806670553425125,0.00011441902056679667,0.8047599303901919,0.007426467724144459,1.5744099617004395,-2.8790524005889893,-0.2547822892665863,0.001298106275498867,-0.025295475497841835,-0.01077800802886486,stop,8,stop,8
1764635474.0034444,none,0,0.0,0,0.0,0.0,0.0,0.006813007903125274,0.00011359944393426196,0.8047598715231493,0.007424432784318924,1.5744199752807617,-2.8790526390075684,-0.2547873854637146,0.0012807738967239857,-0.025320354849100113,-0.01077577006071806,stop,8,stop,8
1764635474.1037624,none,0,0.0,0,0.0,0.0,0.0,0.006819512411058329,0.00011278477496897134,0.804759810950617,0.007422382477670908,1.574430227279663,-2.8790528774261475,-0.2547924816608429,0.0012635187013074756,-0.0253450907766819,-0.010773529298603535,stop,8,stop,8
1764635474.203902,none,0,0.0,0,0.0,0.0,0.0,0.006826096955261792,0.00011197102653153618,0.8047597495266047,0.007420320995151997,1.574440598487854,-2.8790531158447266,-0.2547976076602936,0.0012462722370401025,-0.025370026007294655,-0.010771272704005241,stop,8,stop,8
1764635474.3040695,none,0,0.0,0,0.0,0.0,0.0,0.006832538911071658,0.00011119067189847007,0.804759689327595,0.007418327033519745,1.5744507312774658,-2.8790533542633057,-0.25480252504348755,0.0012297171633690596,-0.025393689051270485,-0.010769128799438477,stop,8,stop,8
1764635474.4042215,none,0,0.0,0,0.0,0.0,0.0,0.006839454269533349,0.00011037997041084769,0.804759624525352,0.007416236214339733,1.574461579322815,-2.8790535926818848,-0.2548076808452606,0.0012124879285693169,-0.025418583303689957,-0.010766871273517609,stop,8,stop,8
1764635474.5043085,none,0,0.0,0,0.0,0.0,0.0,0.0068464532678094315,0.00010956339436587726,0.8047595588289211,0.00741411792114377,1.5744725465774536,-2.879053831100464,-0.2548128366470337,0.0011951311025768518,-0.025443481281399727,-0.010764614678919315,stop,8,stop,8
1764635474.6044042,none,0,0.0,0,0.0,0.0,0.0,0.006853313140946502,0.0001087920665551499,0.804759494301245,0.00741208903491497,1.5744832754135132,-2.879054069519043,-0.25481775403022766,0.0011787030380219221,-0.025467155501246452,-0.010762449353933334,stop,8,stop,8
1764635474.7045758,none,0,0.0,0,0.0,0.0,0.0,0.006860726670970332,0.0001079826390951698,0.8047594238692584,0.007409962359815836,1.57449471950531,-2.879054069519043,-0.2548229396343231,0.0011614314280450344,-0.02549206092953682,-0.010760188102722168,stop,8,stop,8
1764635474.804774,none,0,0.0,0,0.0,0.0,0.0,0.006868143562041935,0.00010717837318832568,0.8047593538041293,0.007407794240862131,1.5745062828063965,-2.879054307937622,-0.2548280954360962,0.001144270645454526,-0.025516970083117485,-0.010757927782833576,stop,8,stop,8
1764635474.9049022,none,0,0.0,0,0.0,0.0,0.0,0.006875724106797346,0.00010637237049329951,0.8047592820478864,0.007405628450214863,1.574518084526062,-2.879054546356201,-0.25483328104019165,0.001127050258219242,-0.02554178610444069,-0.010755665600299835,stop,8,stop,8
1764635475.0048945,none,0,0.0,0,0.0,0.0,0.0,0.006883162064734863,0.0001055996411718314,0.8047592115117348,0.007403530180454254,1.5745296478271484,-2.8790547847747803,-0.2548382580280304,0.00111051881685853,-0.02556557208299637,-0.010753489099442959,stop,8,stop,8
1764635475.1050045,none,0,0.0,0,0.0,0.0,0.0,0.00689107696254061,0.00010479835494609424,0.8047591362704284,0.0074013350531458855,1.5745419263839722,-2.8790550231933594,-0.25484344363212585,0.0010933494195342064,-0.02559049427509308,-0.01075122132897377,stop,8,stop,8
1764635475.2051864,none,0,0.0,0,0.0,0.0,0.0,0.0068991627319782145,0.00010400037288577616,0.8047590587257734,0.00739913759753108,1.5745543241500854,-2.8790550231933594,-0.2548485994338989,0.0010762225138023496,-0.02561527118086815,-0.010748946107923985,stop,8,stop,8
1764635475.3052478,none,0,0.0,0,0.0,0.0,0.0,0.006907011540934847,0.0001032314195990285,0.8047589838551511,0.00739698763936758,1.5745664834976196,-2.8790552616119385,-0.25485363602638245,0.0010597152868285775,-0.025639118626713753,-0.01074675377458334,stop,8,stop,8
1764635475.4053426,none,0,0.0,0,0.0,0.0,0.0,0.006915424458661684,0.00010243132980005201,0.804758903390278,0.007394751999527216,1.5745794773101807,-2.8790555000305176,-0.2548588514328003,0.0010425031650811434,-0.02566400170326233,-0.01074447762221098,stop,8,stop,8
1764635475.5054407,none,0,0.0,0,0.0,0.0,0.0,0.006923837320626235,0.00010163819875245664,0.8047588227999265,0.007392501924186945,1.5745924711227417,-2.8790557384490967,-0.25486406683921814,0.0010254352819174528,-0.025688741356134415,-0.010742207057774067,stop,8,stop,8
1764635475.6056123,none,0,0.0,0,0.0,0.0,0.0,0.006932271409673346,0.0001008760560774397,0.8047587413076933,0.007390313316136599,1.5746053457260132,-2.8790557384490967,-0.25486910343170166,0.0010089861461892724,-0.025712648406624794,-0.010740016587078571,stop,8,stop,8
1764635475.705664,none,0,0.0,0,0.0,0.0,0.0,0.006941185862038671,0.00010008215030007876,0.8047586555210918,0.00738803343847394,1.5746190547943115,-2.879055976867676,-0.2548743188381195,0.0009918329305946827,-0.025737544521689415,-0.010737736709415913,stop,8,stop,8
1764635475.8057942,none,0,0.0,0,0.0,0.0,0.0,0.006950180364245379,9.928731379448545e-05,0.8047585688174655,0.007385720498859882,1.5746328830718994,-2.879056215286255,-0.25487956404685974,0.0009746542782522738,-0.025762492790818214,-0.010735436342656612,stop,8,stop,8
1764635475.905998,none,0,0.0,0,0.0,0.0,0.0,0.006959505796720925,9.850031171503563e-05,0.804758478189819,0.007383410818874836,1.574647068977356,-2.879056215286255,-0.25488483905792236,0.0009575855801813304,-0.025787297636270523,-0.010733137838542461,stop,8,stop,8
1764635476.006264,none,0,0.0,0,0.0,0.0,0.0,0.0069684412884341105,9.774121311281525e-05,0.8047583917277736,0.007381164934486151,1.5746607780456543,-2.879056453704834,-0.2548898756504059,0.0009411343489773571,-0.025811171159148216,-0.010730945505201817,stop,8,stop,8
1764635476.106457,none,0,0.0,0,0.0,0.0,0.0,0.006978013824858027,9.69515580326813e-05,0.8047582988813385,0.007378825917840004,1.574675440788269,-2.879056692123413,-0.2548951804637909,0.0009239805513061583,-0.02583613246679306,-0.010728636756539345,stop,8,stop,8
1764635476.2067103,none,0,0.0,0,0.0,0.0,0.0,0.006987844355754216,9.6169014090295e-05,0.8047582027928608,0.007376466877758503,1.574690341949463,-2.879056692123413,-0.25490042567253113,0.0009069363586604595,-0.025860948488116264,-0.010726343840360641,stop,8,stop,8
1764635476.3066626,none,0,0.0,0,0.0,0.0,0.0,0.006997518031200308,9.540765216027532e-05,0.8047581085836983,0.007374159526079893,1.5747051239013672,-2.879056930541992,-0.2549055814743042,0.0008903397829271853,-0.0258850809186697,-0.010724112391471863,stop,8,stop,8
1764635476.406742,none,0,0.0,0,0.0,0.0,0.0,0.007007675846748484,9.462463225633943e-05,0.804758008931036,0.0073717618361115456,1.5747205018997192,-2.879056930541992,-0.2549108862876892,0.0008732442511245608,-0.02591005340218544,-0.010721796192228794,stop,8,stop,8
1764635476.5067997,none,0,0.0,0,0.0,0.0,0.0,0.007017527277161288,9.387525807694021e-05,0.8047579126099751,0.0073694586753845215,1.5747355222702026,-2.8790571689605713,-0.2549159526824951,0.0008568659541197121,-0.025933947414159775,-0.010719596408307552,stop,8,stop,8
1764635476.6068933,none,0,0.0,0,0.0,0.0,0.0,0.0070280994725322055,9.309916996836265e-05,0.8047578084825515,0.00736704096198082,1.5747514963150024,-2.8790571689605713,-0.2549212872982025,0.0008398540667258203,-0.025958828628063202,-0.010717280209064484,stop,8,stop,8
1764635476.707004,none,0,0.0,0,0.0,0.0,0.0,0.007038842263905845,9.232284757591724e-05,0.8047577029682409,0.007364598568528891,1.574767827987671,-2.8790574073791504,-0.2549265921115875,0.0008228164515458047,-0.025983765721321106,-0.010714969597756863,stop,8,stop,8
1764635476.807127,none,0,0.0,0,0.0,0.0,0.0,0.007049271903959976,9.15751427822047e-05,0.804757599854871,0.007362257689237595,1.5747835636138916,-2.8790574073791504,-0.2549317181110382,0.0008063938585110009,-0.026007620617747307,-0.010712744668126106,stop,8,stop,8
1764635476.9073155,none,0,0.0,0,0.0,0.0,0.0,0.007060429087261769,9.08040391492311e-05,0.8047574898136091,0.0073597910813987255,1.5748004913330078,-2.8790576457977295,-0.2549370527267456,0.0007894058944657445,-0.026032516732811928,-0.010710434056818485,stop,8,stop,8
1764635477.0074084,none,0,0.0,0,0.0,0.0,0.0,0.007071673546613122,9.003556987677907e-05,0.8047573781844379,0.007357324007898569,1.574817419052124,-2.8790576457977295,-0.2549423575401306,0.0007724596071057022,-0.026057366281747818,-0.010708129964768887,stop,8,stop,8
1764635477.107521,none,0,0.0,0,0.0,0.0,0.0,0.0070830815091103266,8.926518755534917e-05,0.8047572652203616,0.0073548369109630585,1.5748347043991089,-2.8790578842163086,-0.254947692155838,0.000755454006139189,-0.026082219555974007,-0.01070581004023552,stop,8,stop,8
1764635477.2076702,none,0,0.0,0,0.0,0.0,0.0,0.00709451066306439,8.853063261503049e-05,0.8047571512723227,0.007352429907768965,1.5748518705368042,-2.8790578842163086,-0.2549528479576111,0.0007391630206257105,-0.02610614150762558,-0.010703579522669315,stop,8,stop,8
1764635477.3078477,none,0,0.0,0,0.0,0.0,0.0,0.00710657690847226,8.775877724378239e-05,0.8047570307471067,0.0073498934507369995,1.574869990348816,-2.8790578842163086,-0.25495827198028564,0.000722038559615612,-0.026131249964237213,-0.01070123165845871,stop,8,stop,8
1764635477.4079862,none,0,0.0,0,0.0,0.0,0.0,0.007118733656540924,8.699284511222434e-05,0.8047569095690555,0.007347352337092161,1.5748883485794067,-2.8790581226348877,-0.25496363639831543,0.0007050228887237608,-0.026156166568398476,-0.010698904283344746,stop,8,stop,8
1764635477.507936,none,0,0.0,0,0.0,0.0,0.0,0.007130660813345738,8.62609299497867e-05,0.8047567899333811,0.007344902493059635,1.5749062299728394,-2.8790581226348877,-0.2549688220024109,0.0006887209019623697,-0.026180148124694824,-0.01069666724652052,stop,8,stop,8
1764635477.608184,none,0,0.0,0,0.0,0.0,0.0,0.007143319237206067,8.550239108139247e-05,0.804756662685275,0.007342326454818249,1.574925184249878,-2.8790581226348877,-0.2549741864204407,0.0006717881769873202,-0.026205023750662804,-0.010694329626858234,stop,8,stop,8
1764635477.708314,none,0,0.0,0,0.0,0.0,0.0,0.007156301295887277,8.473647952148334e-05,0.8047565324173664,0.007339730393141508,1.5749447345733643,-2.879058361053467,-0.2549796402454376,0.0006546615622937679,-0.0262301005423069,-0.010691981762647629,stop,8,stop,8
1764635477.8084297,none,0,0.0,0,0.0,0.0,0.0,0.007168897182955086,8.401004694749192e-05,0.8047564052570894,0.007337232585996389,1.5749635696411133,-2.879058361053467,-0.2549848258495331,0.0006383819854818285,-0.026254095137119293,-0.010689733549952507,stop,8,stop,8
1764635477.9084978,none,0,0.0,0,0.0,0.0,0.0,0.007182300848505395,8.32543723299156e-05,0.8047562696477878,0.0073346225544810295,1.5749835968017578,-2.879058361053467,-0.25499024987220764,0.0006214053137227893,-0.026279082521796227,-0.010687394067645073,stop,8,stop,8
1764635478.0086231,none,0,0.0,0,0.0,0.0,0.0,0.0071959517361215196,8.250068247101023e-05,0.804756131233346,0.007331992033869028,1.575003981590271,-2.879058361053467,-0.2549957036972046,0.0006044365582056344,-0.026304122060537338,-0.010685047134757042,stop,8,stop,8
1764635478.108679,none,0,0.0,0,0.0,0.0,0.0,0.007209216200503349,8.177980476125108e-05,0.8047559969437849,0.007329462096095085,1.575023889541626,-2.879058599472046,-0.25500088930130005,0.0005881789838895202,-0.026328081265091896,-0.010682801716029644,stop,8,stop,8
1764635478.2088954,none,0,0.0,0,0.0,0.0,0.0,0.007223285017403813,8.103285965039276e-05,0.8047558536644706,0.007326802704483271,1.575044870376587,-2.879058599472046,-0.255006343126297,0.0005712921847589314,-0.026352981105446815,-0.010680455714464188,stop,8,stop,8
1764635478.309022,none,0,0.0,0,0.0,0.0,0.0,0.007237688225336025,8.028529930723282e-05,0.8047557066364788,0.007324133068323135,1.575066328048706,-2.879058599472046,-0.25501179695129395,0.0005543461302295327,-0.02637798711657524,-0.010678107850253582,stop,8,stop,8
1764635478.4091778,none,0,0.0,0,0.0,0.0,0.0,0.007251781640745426,7.957255353009156e-05,0.8047555624406965,0.007321539334952831,1.575087308883667,-2.879058599472046,-0.2550170421600342,0.0005381441442295909,-0.026402005925774574,-0.010675845667719841,stop,8,stop,8
1764635478.509278,none,0,0.0,0,0.0,0.0,0.0,0.007266686418236665,7.882583383183379e-05,0.8047554095981716,0.007318851072341204,1.5751094818115234,-2.879058599472046,-0.25502249598503113,0.000521146401297301,-0.026427118107676506,-0.010673492215573788,stop,8,stop,8
1764635478.6094666,none,0,0.0,0,0.0,0.0,0.0,0.007281838368564961,7.808765585042464e-05,0.8047552538562283,0.007316142786294222,1.5751320123672485,-2.879058599472046,-0.25502797961235046,0.0005042901029810309,-0.02645193785429001,-0.010671127587556839,stop,8,stop,8
1764635478.7095258,none,0,0.0,0,0.0,0.0,0.0,0.007297241104378421,7.734976951392978e-05,0.8047550951610333,0.007313408423215151,1.5751549005508423,-2.879058599472046,-0.2550334632396698,0.0004874079895671457,-0.026476861909031868,-0.010668765753507614,stop,8,stop,8
1764635478.8096414,none,0,0.0,0,0.0,0.0,0.0,0.007312414112651893,7.66440917528342e-05,0.8047549384572913,0.007310773245990276,1.5751774311065674,-2.879058599472046,-0.2550387680530548,0.0004712016088888049,-0.026500998064875603,-0.010666499845683575,stop,8,stop,8
1764635478.9098587,none,0,0.0,0,0.0,0.0,0.0,0.007328485605941106,7.590807558153209e-05,0.8047547720698391,0.007307998836040497,1.5752012729644775,-2.879058599472046,-0.25504425168037415,0.00045426751603372395,-0.02652597986161709,-0.01066413801163435,stop,8,stop,8
1764635479.0101275,none,0,0.0,0,0.0,0.0,0.0,0.007344156644141265,7.520135597384448e-05,0.8047546094496206,0.0073053245432674885,1.57522451877594,-2.879058599472046,-0.25504958629608154,0.0004379751917440444,-0.02655007503926754,-0.010661853477358818,stop,8,stop,8
1764635479.1103206,none,0,0.0,0,0.0,0.0,0.0,0.0073608097467649635,7.446667381723176e-05,0.804754436202742,0.007302525453269482,1.575249195098877,-2.879058599472046,-0.25505509972572327,0.0004209891485515982,-0.02657511457800865,-0.010659482330083847,stop,8,stop,8
1764635479.21055,none,0,0.0,0,0.0,0.0,0.0,0.0073777100212022405,7.374048508770339e-05,0.8047542599445701,0.007299705874174833,1.5752742290496826,-2.879058599472046,-0.2550606429576874,0.00040414402610622346,-0.02660030871629715,-0.010657100938260555,stop,8,stop,8
1764635479.3106756,none,0,0.0,0,0.0,0.0,0.0,0.007394857525197414,7.301478292095462e-05,0.8047540806607172,0.007296893745660782,1.575299620628357,-2.879058599472046,-0.2550662159919739,0.00038727294304408133,-0.0266252588480711,-0.010654730722308159,stop,8,stop,8
1764635479.4109561,none,0,0.0,0,0.0,0.0,0.0,0.0074117023670318095,7.232047990157097e-05,0.8047539040795256,0.0072941561229527,1.575324535369873,-2.879058599472046,-0.2550715208053589,0.00037107564276084304,-0.026649273931980133,-0.010652443394064903,stop,8,stop,8
1764635479.5112062,none,0,0.0,0,0.0,0.0,0.0,0.007429522141462376,7.160157144694495e-05,0.8047537168027544,0.007291308604180813,1.5753508806228638,-2.879058599472046,-0.255077064037323,0.00035425223177298903,-0.026674332097172737,-0.01065006572753191,stop,8,stop,8
1764635479.611299,none,0,0.0,0,0.0,0.0,0.0,0.0074476693378550925,7.088360561058844e-05,0.804753525085431,0.00728845177218318,1.5753775835037231,-2.879058361053467,-0.2550826668739319,0.000337402947479859,-0.026699494570493698,-0.010647689923644066,stop,8,stop,8
1764635479.7113755,none,0,0.0,0,0.0,0.0,0.0,0.007465426575441787,7.01964637730585e-05,0.8047533374842358,0.007285682484507561,1.5754038095474243,-2.879058361053467,-0.25508803129196167,0.0003212267183698714,-0.026723572984337807,-0.010645401664078236,stop,8,stop,8
1764635479.8114898,none,0,0.0,0,0.0,0.0,0.0,0.007484165873705172,6.948128525565863e-05,0.8047531389797706,0.007282773032784462,1.5754314661026,-2.879058361053467,-0.2550935745239258,0.00030435860389843583,-0.026748595759272575,-0.010643022134900093,stop,8,stop,8
1764635479.9115949,none,0,0.0,0,0.0,0.0,0.0,0.007503315999920814,6.877262884198258e-05,0.804752935570343,0.0072798659093678,1.5754597187042236,-2.879058361053467,-0.25509917736053467,0.0002875641221180558,-0.0267737228423357,-0.010640640743076801,stop,8,stop,8
1764635480.0117018,none,0,0.0,0,0.0,0.0,0.0,0.007521992886160001,6.809256884982983e-05,0.8047527361435403,0.007277053780853748,1.5754871368408203,-2.8790581226348877,-0.25510454177856445,0.00027140858583152294,-0.026797814294695854,-0.01063834223896265,stop,8,stop,8
1764635480.1118174,none,0,0.0,0,0.0,0.0,0.0,0.007541728133683711,6.739001726388546e-05,0.8047525253746035,0.007274110801517963,1.5755162239074707,-2.8790581226348877,-0.25511014461517334,0.0002546616306062788,-0.026822801679372787,-0.01063595712184906,stop,8,stop,8
1764635480.211953,none,0,0.0,0,0.0,0.0,0.0,0.00756204514569416,6.668863390409738e-05,0.8047523072621892,0.007271164562553167,1.5755460262298584,-2.8790578842163086,-0.2551157772541046,0.00023785530356690288,-0.026847893372178078,-0.01063357014209032,stop,8,stop,8
1764635480.3119454,none,0,0.0,0,0.0,0.0,0.0,0.00758155778357242,6.601504158977665e-05,0.8047520976912852,0.007268315181136131,1.5755747556686401,-2.8790578842163086,-0.2551211416721344,0.00022172015451360494,-0.026872048154473305,-0.010631262324750423,stop,8,stop,8
1764635480.4121227,none,0,0.0,0,0.0,0.0,0.0,0.007602539969449418,6.531854187730044e-05,0.80475187118538,0.007265315856784582,1.5756055116653442,-2.8790576457977295,-0.25512680411338806,0.00020492784096859396,-0.026897050440311432,-0.010628866963088512,stop,8,stop,8
1764635480.5122337,none,0,0.0,0,0.0,0.0,0.0,0.007623696293936621,6.462197118848725e-05,0.804751642635642,0.0072623249143362045,1.575636625289917,-2.8790576457977295,-0.25513240694999695,0.0001881096395663917,-0.026922255754470825,-0.010626474395394325,stop,8,stop,8
1764635480.6122787,none,0,0.0,0,0.0,0.0,0.0,0.007645427220018532,6.393438282475852e-05,0.8047514066761096,0.007259294856339693,1.575668454170227,-2.8790574073791504,-0.255138099193573,0.00017139787087216973,-0.026947317644953728,-0.010624080896377563,stop,8,stop,8
1764635480.7124553,none,0,0.0,0,0.0,0.0,0.0,0.007666440963999003,6.32688805917182e-05,0.8047511783165187,0.007256393786519766,1.5756993293762207,-2.8790574073791504,-0.25514349341392517,0.00015522334433626384,-0.026971440762281418,-0.010621774941682816,stop,8,stop,8
1764635480.8126125,none,0,0.0,0,0.0,0.0,0.0,0.007688840622680965,6.258479764592767e-05,0.804750933667571,0.007253346033394337,1.5757321119308472,-2.8790571689605713,-0.2551491856575012,0.0001384922506986186,-0.026996610686182976,-0.01061936840415001,stop,8,stop,8
1764635480.9126644,none,0,0.0,0,0.0,0.0,0.0,0.007711661786800667,6.190385586154248e-05,0.8047506836462128,0.007250282913446426,1.5757654905319214,-2.879056930541992,-0.2551548480987549,0.00012176806922070682,-0.027021735906600952,-0.010616970248520374,stop,8,stop,8
1764635481.012757,none,0,0.0,0,0.0,0.0,0.0,0.007733758630954964,6.124968019295386e-05,0.8047504413133789,0.0072473324835300446,1.5757979154586792,-2.879056930541992,-0.25516027212142944,0.00010567971912678331,-0.027045775204896927,-0.010614664293825626,stop,8,stop,8
1764635481.1128414,none,0,0.0,0,0.0,0.0,0.0,0.007757412148526951,6.057498302911107e-05,0.8047501805946305,0.0072442456148564816,1.575832486152649,-2.879056692123413,-0.2551659643650055,8.896923100110143e-05,-0.02707081101834774,-0.01061225775629282,stop,8,stop,8
1764635481.213035,none,0,0.0,0,0.0,0.0,0.0,0.007781400025095602,5.990273230166581e-05,0.8047499153511037,0.007241137325763702,1.5758675336837769,-2.879056453704834,-0.25517165660858154,7.226561137940735e-05,-0.027096102014183998,-0.010609850287437439,stop,8,stop,8
1764635481.313122,none,0,0.0,0,0.0,0.0,0.0,0.007804743798210152,5.9254407896688864e-05,0.8047496564027957,0.007238124962896109,1.5759016275405884,-2.879056215286255,-0.2551771402359009,5.6130855227820575e-05,-0.027120104059576988,-0.010607531294226646,stop,8,stop,8
1764635481.413177,none,0,0.0,0,0.0,0.0,0.0,0.007829564013971729,5.8589947727447374e-05,0.8047493802189067,0.0072349864058196545,1.5759378671646118,-2.879055976867676,-0.2551828622817993,3.947396908188239e-05,-0.027145354077219963,-0.010605120100080967,stop,8,stop,8
1764635481.5133383,none,0,0.0,0,0.0,0.0,0.0,0.007854805766957235,5.792380056353642e-05,0.8047490984139489,0.0072318390011787415,1.575974702835083,-2.8790557384490967,-0.25518855452537537,2.2725413145963103e-05,-0.027170460671186447,-0.010602712631225586,stop,8,stop,8
1764635481.6134431,none,0,0.0,0,0.0,0.0,0.0,0.007880541945715872,5.726311185176851e-05,0.8047488101365798,0.00722866365686059,1.5760122537612915,-2.8790555000305176,-0.2551943063735962,6.022859906806843e-06,-0.02719562128186226,-0.010600303299725056,stop,8,stop,8
1764635481.713558,none,0,0.0,0,0.0,0.0,0.0,0.007905717585414944,5.663095118615099e-05,0.804748527182932,0.007225624285638332,1.5760489702224731,-2.8790552616119385,-0.2551998496055603,-1.0036078492703382e-05,-0.02721979282796383,-0.010597988963127136,stop,8,stop,8
1764635481.8136668,none,0,0.0,0,0.0,0.0,0.0,0.007932213163517695,5.597728265974009e-05,0.8047482284050474,0.007222418673336506,1.5760875940322876,-2.8790550231933594,-0.25520554184913635,-2.6696010536397807e-05,-0.027244964614510536,-0.010595572181046009,stop,8,stop,8
1764635481.913925,none,0,0.0,0,0.0,0.0,0.0,0.007959286772682183,5.532772909559054e-05,0.8047479220580352,0.007219203747808933,1.576127052307129,-2.8790547847747803,-0.2552112936973572,-4.3352163629606366e-05,-0.027270041406154633,-0.010593160055577755,stop,8,stop,8
1764635482.014134,none,0,0.0,0,0.0,0.0,0.0,0.00798555262024118,5.4704294525864855e-05,0.8047476238108466,0.007216114550828934,1.5761653184890747,-2.879054546356201,-0.2552168071269989,-5.9375855926191434e-05,-0.027294177561998367,-0.01059083640575409,stop,8,stop,8
1764635482.1142766,none,0,0.0,0,0.0,0.0,0.0,0.008013542166036006,5.406136823795052e-05,0.8047473049098869,0.007212869357317686,1.576206088066101,-2.879054307937622,-0.2552225887775421,-7.601970719406381e-05,-0.02731936424970627,-0.010588421486318111,stop,8,stop,8
1764635482.2145894,none,0,0.0,0,0.0,0.0,0.0,0.008042197047364238,5.342152962168731e-05,0.8047469767472996,0.0072095962241292,1.5762476921081543,-2.879053831100464,-0.2552284002304077,-9.269003930967301e-05,-0.027344606816768646,-0.010585990734398365,stop,8,stop,8
1764635482.3145368,none,0,0.0,0,0.0,0.0,0.0,0.008071022508181524,5.278146240955893e-05,0.8047466459313714,0.007206326350569725,1.5762896537780762,-2.8790535926818848,-0.2552341818809509,-0.00010938672494376078,-0.027369802817702293,-0.010583573952317238,stop,8,stop,8
1764635482.4146698,none,0,0.0,0,0.0,0.0,0.0,0.008099374556159784,5.217316352353635e-05,0.8047463193471059,0.007203184999525547,1.5763309001922607,-2.8790533542633057,-0.25523972511291504,-0.00012538574810605496,-0.02739386074244976,-0.010581251233816147,stop,8,stop,8
1764635482.5149558,none,0,0.0,0,0.0,0.0,0.0,0.00812937041823724,5.154293625336964e-05,0.8047459720787102,0.007199858780950308,1.5763744115829468,-2.8790528774261475,-0.25524550676345825,-0.00014203684986568987,-0.027419118210673332,-0.010578827001154423,stop,8,stop,8
1764635482.6149807,none,0,0.0,0,0.0,0.0,0.0,0.008159776957192095,5.091743659126526e-05,0.8047456192430769,0.0071965367533266544,1.5764186382293701,-2.8790526390075684,-0.25525134801864624,-0.00015864857414271683,-0.02744443155825138,-0.010576397180557251,stop,8,stop,8
1764635482.7150688,none,0,0.0,0,0.0,0.0,0.0,0.008189710256567315,5.032038218693942e-05,0.8047452700645732,0.00719333766028285,1.5764620304107666,-2.87905216217041,-0.2552569508552551,-0.0001746293273754418,-0.027468502521514893,-0.010574071668088436,stop,8,stop,8
1764635482.8152676,none,0,0.0,0,0.0,0.0,0.0,0.008221207011845528,4.970263140327726e-05,0.8047449017946149,0.007189978379756212,1.576507806777954,-2.879051923751831,-0.2552627623081207,-0.00019122855155728757,-0.027493877336382866,-0.010571635328233242,stop,8,stop,8
1764635482.915304,none,0,0.0,0,0.0,0.0,0.0,0.00825287459490721,4.909130968547925e-05,0.8047445295774268,0.0071866498328745365,1.5765537023544312,-2.879051446914673,-0.25526854395866394,-0.00020772291463799775,-0.027518706396222115,-0.010569237172603607,stop,8,stop,8
1764635483.0154216,none,0,0.0,0,0.0,0.0,0.0,0.008284061571210406,4.850324523377777e-05,0.8047441620703378,0.007183413486927748,1.5765990018844604,-2.8790512084960938,-0.2552741467952728,-0.00022368565259967,-0.027542943134903908,-0.010566914454102516,stop,8,stop,8
1764635483.1154299,none,0,0.0,0,0.0,0.0,0.0,0.008317393906221538,4.7897016071308854e-05,0.8047437672464891,0.0071800146251916885,1.5766472816467285,-2.8790507316589355,-0.2552799880504608,-0.0002402990940026939,-0.027568284422159195,-0.010564485564827919,stop,8,stop,8
1764635483.2158213,none,0,0.0,0,0.0,0.0,0.0,0.00835114416798646,4.7295349870605835e-05,0.8047433658449539,0.007176599930971861,1.5766961574554443,-2.8790502548217773,-0.2552858293056488,-0.0002568734635133296,-0.027593478560447693,-0.010562055744230747,stop,8,stop,8
1764635483.3159022,none,0,0.0,0,0.0,0.0,0.0,0.008384166698466044,4.6721822769515694e-05,0.8047429714793728,0.007173305377364159,1.5767439603805542,-2.879049777984619,-0.2552914619445801,-0.00027278560446575284,-0.02761763148009777,-0.010559720918536186,stop,8,stop,8
1764635483.4161506,none,0,0.0,0,0.0,0.0,0.0,0.008418996520429739,4.6126161856806e-05,0.8047425538799126,0.007169859483838081,1.5767943859100342,-2.879049301147461,-0.25529736280441284,-0.0002893806667998433,-0.027642888948321342,-0.010557295754551888,stop,8,stop,8
1764635483.5162132,none,0,0.0,0,0.0,0.0,0.0,0.008454418555416409,4.553629107374715e-05,0.804742127385719,0.007166398223489523,1.576845645904541,-2.8790488243103027,-0.25530320405960083,-0.00030593678820878267,-0.027668099850416183,-0.010554859414696693,stop,8,stop,8
1764635483.6162703,none,0,0.0,0,0.0,0.0,0.0,0.00849049866889472,4.4947885860643055e-05,0.8047416911304144,0.007162927649915218,1.5768978595733643,-2.8790483474731445,-0.255309134721756,-0.0003225523396395147,-0.02769346721470356,-0.010552422143518925,stop,8,stop,8
1764635483.716351,none,0,0.0,0,0.0,0.0,0.0,0.00852577806832697,4.4393519194516806e-05,0.8047412627043935,0.007159579545259476,1.576948881149292,-2.8790478706359863,-0.25531476736068726,-0.0003383756848052144,-0.027717743068933487,-0.010550101287662983,stop,8,stop,8
1764635483.8164823,none,0,0.0,0,0.0,0.0,0.0,0.008563031958869498,4.3814889808749934e-05,0.804740808408623,0.007156070787459612,1.577002763748169,-2.879047393798828,-0.25532066822052,-0.0003549465909600258,-0.027742920443415642,-0.010547664016485214,stop,8,stop,8
1764635483.9165933,none,0,0.0,0,0.0,0.0,0.0,0.008601118213756326,4.323871077959959e-05,0.8047403419114488,0.007152525242418051,1.5770578384399414,-2.87904691696167,-0.25532659888267517,-0.0003715769562404603,-0.02776825614273548,-0.010545225813984871,stop,8,stop,8
1764635484.016633,none,0,0.0,0,0.0,0.0,0.0,0.008638313240644508,4.269131027787478e-05,0.8047398837835319,0.007149131968617439,1.5771114826202393,-2.8790462017059326,-0.2553322911262512,-0.00038751415559090674,-0.027792546898126602,-0.010542893782258034,stop,8,stop,8
1764635484.116749,none,0,0.0,0,0.0,0.0,0.0,0.008677569676324456,4.213001218851748e-05,0.8047393986873141,0.007145590148866177,1.5771682262420654,-2.8790457248687744,-0.25533822178840637,-0.0004040018829982728,-0.02781779132783413,-0.010540461167693138,stop,8,stop,8
1764635484.2169008,none,0,0.0,0,0.0,0.0,0.0,0.008717575040545916,4.156892099786141e-05,0.8047389015686611,0.007142011076211929,1.577225923538208,-2.879045009613037,-0.2553441822528839,-0.00042058186954818666,-0.027843093499541283,-0.010538027621805668,stop,8,stop,8
1764635484.3171306,none,0,0.0,0,0.0,0.0,0.0,0.008756608838465262,4.103583459309609e-05,0.8047384147589023,0.007138564717024565,1.5772823095321655,-2.879044532775879,-0.25534987449645996,-0.0004364695050753653,-0.027867499738931656,-0.01053569559007883,stop,8,stop,8
1764635484.4174292,none,0,0.0,0,0.0,0.0,0.0,0.008797700795784864,4.0487172172590564e-05,0.8047378994688339,0.007134968414902687,1.5773415565490723,-2.8790438175201416,-0.2553558349609375,-0.0004529399157036096,-0.027892762795090675,-0.010533266700804234,stop,8,stop,8
1764635484.5176435,none,0,0.0,0,0.0,0.0,0.0,0.008839712113401553,3.994002286789448e-05,0.8047373706643546,0.007131348364055157,1.5774022340774536,-2.8790433406829834,-0.25536179542541504,-0.00046950255637057126,-0.027917981147766113,-0.010530833154916763,stop,8,stop,8
1764635484.617716,none,0,0.0,0,0.0,0.0,0.0,0.00888264305335323,3.939920535962986e-05,0.8047368271771868,0.007127705030143261,1.5774641036987305,-2.879042625427246,-0.2553677558898926,-0.0004860593471676111,-0.027943406254053116,-0.010528395883738995,stop,8,stop,8
1764635484.717809,none,0,0.0,0,0.0,0.0,0.0,0.0089242646450184,3.888556739879547e-05,0.8047362976914547,0.007124197203665972,1.5775240659713745,-2.879041910171509,-0.255373477935791,-0.0005018923548050225,-0.027967635542154312,-0.010526063852012157,stop,8,stop,8
1764635484.8178434,none,0,0.0,0,0.0,0.0,0.0,0.008968275072749887,3.835549141920026e-05,0.80473573520015,0.007120543625205755,1.5775874853134155,-2.8790411949157715,-0.25537949800491333,-0.0005183726898394525,-0.02799292281270027,-0.010523625649511814,stop,8,stop,8
1764635484.9184074,none,0,0.0,0,0.0,0.0,0.0,0.009011652035189744,3.785104806907764e-05,0.8047351780428202,0.007117033936083317,1.5776499509811401,-2.879040479660034,-0.25538522005081177,-0.0005342602380551398,-0.028017312288284302,-0.010521289892494678,stop,8,stop,8
1764635485.0183692,none,0,0.0,0,0.0,0.0,0.0,0.009057083405641968,3.733518097471863e-05,0.8047345916853742,0.007113311905413866,1.5777153968811035,-2.879039764404297,-0.2553912401199341,-0.0005506317247636616,-0.028042610734701157,-0.010518867522478104,stop,8,stop,8
1764635485.118339,none,0,0.0,0,0.0,0.0,0.0,0.009103521450128722,3.681682891580082e-05,0.8047339892912461,0.007109594997018576,1.5777822732925415,-2.8790390491485596,-0.255397230386734,-0.0005671932594850659,-0.02806796506047249,-0.010516435839235783,stop,8,stop,8
1764635485.2185278,none,0,0.0,0,0.0,0.0,0.0,0.009150711749266162,3.630681054431964e-05,0.8047333739906042,0.0071058617904782295,1.5778502225875854,-2.8790383338928223,-0.25540322065353394,-0.0005836840136907995,-0.02809327468276024,-0.01051400974392891,stop,8,stop,8
1764635485.3187175,none,0,0.0,0,0.0,0.0,0.0,0.009196756342019729,3.5823570300239365e-05,0.804732770513683,0.007102274801582098,1.5779165029525757,-2.879037618637085,-0.25540900230407715,-0.000599485298153013,-0.028117690235376358,-0.010511680506169796,stop,8,stop,8
1764635485.4189863,none,0,0.0,0,0.0,0.0,0.0,0.009245858675960105,3.532163463728351e-05,0.8047321232076784,0.007098486181348562,1.5779870748519897,-2.8790366649627686,-0.25541508197784424,-0.0006160631310194731,-0.02814316377043724,-0.010509230196475983,stop,8,stop,8
1764635485.5194838,none,0,0.0,0,0.0,0.0,0.0,0.009295549465723613,3.48286171684999e-05,0.8047314651450009,0.0070947022177278996,1.5780586004257202,-2.8790359497070312,-0.25542113184928894,-0.0006325378781184554,-0.028168493881821632,-0.010506810620427132,stop,8,stop,8
1764635485.6194527,none,0,0.0,0,0.0,0.0,0.0,0.00934615983245172,3.4344980555835376e-05,0.8047307907903651,0.007090894039720297,1.5781313180923462,-2.879034996032715,-0.25542718172073364,-0.0006489422521553934,-0.02819383144378662,-0.01050438079982996,stop,8,stop,8
1764635485.719774,none,0,0.0,0,0.0,0.0,0.0,0.009395293563210876,3.388110466690197e-05,0.8047301330374237,0.0070872497744858265,1.5782020092010498,-2.8790342807769775,-0.25543299317359924,-0.0006647557602263987,-0.02821822091937065,-0.010502048768103123,stop,8,stop,8
1764635485.8197703,none,0,0.0,0,0.0,0.0,0.0,0.009447324903555992,3.3402237326745505e-05,0.8047294323060636,0.007083415519446135,1.5782767534255981,-2.879033327102661,-0.25543904304504395,-0.000681247387547046,-0.028243571519851685,-0.010499625466763973,stop,8,stop,8
1764635485.9200456,none,0,0.0,0,0.0,0.0,0.0,0.009500355714224074,3.2931661004448375e-05,0.8047287141619409,0.007079556118696928,1.578352928161621,-2.8790323734283447,-0.25544512271881104,-0.0006977013545110822,-0.028269028291106224,-0.010497183538973331,stop,8,stop,8
1764635486.0201147,none,0,0.0,0,0.0,0.0,0.0,0.009552327946815892,3.249000020364924e-05,0.8047280064021695,0.0070758406072855,1.5784275531768799,-2.8790314197540283,-0.255450963973999,-0.0007134350016713142,-0.028293387964367867,-0.010494871996343136,stop,8,stop,8
1764635486.1202643,none,0,0.0,0,0.0,0.0,0.0,0.009607281225568984,3.203245618851109e-05,0.8047272539479731,0.0070719546638429165,1.5785064697265625,-2.879030466079712,-0.2554570436477661,-0.0007298788405023515,-0.02831880934536457,-0.010492442175745964,stop,8,stop,8
1764635486.2203717,none,0,0.0,0,0.0,0.0,0.0,0.009662983203844896,3.157985973116108e-05,0.8047264868577574,0.007068051490932703,1.578586459159851,-2.8790295124053955,-0.2554631531238556,-0.0007463176152668893,-0.028344186022877693,-0.01049001794308424,stop,8,stop,8
1764635486.320488,none,0,0.0,0,0.0,0.0,0.0,0.009717546562628786,3.1155751197342254e-05,0.8047257310944954,0.007064309436827898,1.578664779663086,-2.879028558731079,-0.2554689943790436,-0.0007620368851348758,-0.028368614614009857,-0.010487684980034828,stop,8,stop,8
1764635486.4205463,none,0,0.0,0,0.0,0.0,0.0,0.00977484018023603,3.0713690949930553e-05,0.8047249330235998,0.007060372270643711,1.578747034072876,-2.8790276050567627,-0.25547507405281067,-0.0007784657645970583,-0.028393955901265144,-0.010485272854566574,stop,8,stop,8
1764635486.5206764,none,0,0.0,0,0.0,0.0,0.0,0.009833380616025574,3.0281720279534256e-05,0.8047241122806688,0.007056425325572491,1.5788309574127197,-2.879026412963867,-0.25548121333122253,-0.0007948572747409344,-0.028419505804777145,-0.010482851415872574,stop,8,stop,8
1764635486.6207736,none,0,0.0,0,0.0,0.0,0.0,0.00989284389729863,2.9852509885947122e-05,0.8047232741085039,0.007052444387227297,1.578916311264038,-2.879025459289551,-0.255487322807312,-0.0008113087387755513,-0.028444910421967506,-0.010480446740984917,stop,8,stop,8
1764635486.7208517,none,0,0.0,0,0.0,0.0,0.0,0.009951241661129937,2.944895717168804e-05,0.8047224454998047,0.0070486124604940414,1.5789999961853027,-2.8790242671966553,-0.25549325346946716,-0.0008271065889857709,-0.028469417244195938,-0.010478110052645206,stop,8,stop,8
1764635486.820936,none,0,0.0,0,0.0,0.0,0.0,0.010012787426938976,2.903536486790875e-05,0.8047215675759657,0.007044612895697355,1.5790883302688599,-2.879023313522339,-0.2554994225502014,-0.0008435160270892084,-0.028494836762547493,-0.01047569327056408,stop,8,stop,8
1764635486.921058,none,0,0.0,0,0.0,0.0,0.0,0.010075594178630225,2.8634995955333237e-05,0.8047206656121548,0.007040595170110464,1.5791783332824707,-2.8790221214294434,-0.2555055320262909,-0.0008598234271630645,-0.028520211577415466,-0.010473283007740974,stop,8,stop,8
1764635487.0211153,none,0,0.0,0,0.0,0.0,0.0,0.010136666586480072,2.8248865515111768e-05,0.8047197830771322,0.007036696188151836,1.579265832901001,-2.879020929336548,-0.25551146268844604,-0.0008756075985729694,-0.02854473888874054,-0.010470965877175331,stop,8,stop,8
1764635487.1214461,none,0,0.0,0,0.0,0.0,0.0,0.010201552278487333,2.7859111948651452e-05,0.8047188397516968,0.007032651454210281,1.5793588161468506,-2.8790197372436523,-0.2555176615715027,-0.0008919705869629979,-0.028570180758833885,-0.010468554683029652,stop,8,stop,8
1764635487.2215571,none,0,0.0,0,0.0,0.0,0.0,0.010267277349710127,2.7471263309014378e-05,0.804717878109192,0.007028556894510984,1.5794529914855957,-2.879018545150757,-0.25552383065223694,-0.00090839370386675,-0.028595728799700737,-0.010466150008141994,stop,8,stop,8
1764635487.3216164,none,0,0.0,0,0.0,0.0,0.0,0.010331693069898278,2.710893230306402e-05,0.8047169295801929,0.00702461414039135,1.579545259475708,-2.8790173530578613,-0.2555297613143921,-0.0009241321822628379,-0.028620226308703423,-0.010463837534189224,stop,8,stop,8
1764635487.4217865,none,0,0.0,0,0.0,0.0,0.0,0.010399507812188447,2.6738376123680304e-05,0.8047159242212644,0.007020524237304926,1.5796422958374023,-2.8790159225463867,-0.25553593039512634,-0.0009404814336448908,-0.028645789250731468,-0.01046143751591444,stop,8,stop,8
1764635487.5220594,none,0,0.0,0,0.0,0.0,0.0,0.010468408942355133,2.6378185874582697e-05,0.8047148965711716,0.007016424089670181,1.5797410011291504,-2.879014730453491,-0.2555420994758606,-0.0009567614761181176,-0.028671108186244965,-0.010459044016897678,stop,8,stop,8
1764635487.6221557,none,0,0.0,0,0.0,0.0,0.0,0.010538306115254265,2.6019326855476525e-05,0.8047138466694201,0.00701227318495512,1.5798410177230835,-2.8790132999420166,-0.2555483281612396,-0.0009731340687721968,-0.028696585446596146,-0.010456657968461514,stop,8,stop,8
1764635487.7222466,none,0,0.0,0,0.0,0.0,0.0,0.01060706451337309,2.5687099037637168e-05,0.8047128075058552,0.007008268963545561,1.5799394845962524,-2.879012107849121,-0.25555428862571716,-0.0009888230124488473,-0.02872106060385704,-0.010454353876411915,stop,8,stop,8
1764635487.8223634,none,0,0.0,0,0.0,0.0,0.0,0.010679803491377081,2.5347037985714664e-05,0.8047117004725521,0.00700408173725009,1.5800435543060303,-2.8790106773376465,-0.2555605173110962,-0.0010051869321614504,-0.028746603056788445,-0.010451949201524258,stop,8,stop,8
1764635487.9225013,none,0,0.0,0,0.0,0.0,0.0,0.010753381767003165,2.5015529310756748e-05,0.8047105730052208,0.006999884266406298,1.5801488161087036,-2.879009246826172,-0.25556671619415283,-0.00102148181758821,-0.028772100806236267,-0.010449561290442944,stop,8,stop,8
1764635488.0226054,none,0,0.0,0,0.0,0.0,0.0,0.010828958998879888,2.4689350859105766e-05,0.804709406932169,0.006995659787207842,1.5802569389343262,-2.8790078163146973,-0.25557297468185425,-0.0010379340965300798,-0.028797658160328865,-0.010447176173329353,stop,8,stop,8
